/* XPM */
static char *enemy[] = {
/* columns rows colors chars-per-pixel */
"64 64 118 2 ",
"   c #472C19",
".  c #4A2E1A",
"X  c #4E311C",
"o  c #53341C",
"O  c #5B361C",
"+  c #56381F",
"@  c #5D381D",
"#  c #61371B",
"$  c #633A1E",
"%  c #6B3C1C",
"&  c #753E1B",
"*  c #783F1B",
"=  c #543621",
"-  c #563921",
";  c #5B3C23",
":  c #663C20",
">  c #693F22",
",  c #75411D",
"<  c #7B411C",
"1  c #5E4127",
"2  c #644124",
"3  c #6A4123",
"4  c #6C4827",
"5  c #644529",
"6  c #6A4728",
"7  c #6D4B2C",
"8  c #7E4620",
"9  c #7B4B27",
"0  c #734E2D",
"q  c #784E2A",
"w  c #73512F",
"e  c #6A4C30",
"r  c #745232",
"t  c #7A5633",
"y  c #7B5835",
"u  c #7E5C39",
"i  c #83451D",
"p  c #88471D",
"a  c #86481F",
"s  c #8D4A1E",
"d  c #924C1F",
"f  c #814720",
"g  c #854820",
"h  c #8C4B20",
"j  c #824F2B",
"k  c #934D20",
"l  c #87552E",
"z  c #845B36",
"x  c #825D39",
"c  c #85613B",
"v  c #8B653C",
"b  c #956038",
"n  c #9F693F",
"m  c #8C6941",
"M  c #8D684A",
"N  c #926B43",
"B  c #996F44",
"V  c #967044",
"C  c #9A7045",
"Z  c #9F754C",
"A  c #9F7A4E",
"S  c #987858",
"D  c #A0764D",
"F  c #A37A4C",
"G  c #AB7F4D",
"H  c #A27C52",
"J  c #A87D50",
"K  c #AE824F",
"L  c #A58255",
"P  c #AD8453",
"I  c #B28653",
"U  c #B58956",
"Y  c #B98B57",
"T  c #B68B5B",
"R  c #B98E5A",
"E  c #B7905C",
"W  c #BB915E",
"Q  c #A98862",
"!  c #BB9460",
"~  c #B3946C",
"^  c #C3965F",
"/  c #C8965F",
"(  c #CD9A5F",
")  c #C39761",
"_  c #C69962",
"`  c #CC9D64",
"'  c #C59C68",
"]  c #CDA065",
"[  c #CEA169",
"{  c #D1A166",
"}  c #D4A66B",
"|  c #D9A768",
" . c #D6A96C",
".. c #DAAA6D",
"X. c #C4A478",
"o. c #DBAD71",
"O. c #DFB275",
"+. c #E0AE6F",
"@. c #E3B06E",
"#. c #ECB46F",
"$. c #E0AF71",
"%. c #E5B475",
"&. c #EBB674",
"*. c #EEB976",
"=. c #E6B779",
"-. c #E8B779",
";. c #E7B87A",
":. c #EDBA7A",
">. c #F0BB76",
",. c #F1BD7C",
"<. c #F3C07E",
"1. c #DBB888",
"2. c #F2BF80",
"3. c #F3C181",
"4. c #F9C682",
"5. c #E8C893",
"6. c #F8D59C",
"7. c #FFDFA4",
/* pixels */
",.,.U $ : # : # : @ # $ : $ $ $ : : # # # : $ $ $ $ $ $ $ $ $ $ $ $ $ $ # # $ $ $ $ $ $ $ $ $ $ $ $ $ $ $ $ $ $ $ $ $ : > ` 2.2.",
",.I t : : : : : $ : $ : : $ $ $ : : : : : : : : : $ : : : > $ $ : % $ : : : $ : $ : $ : $ $ > $ $ $ : % : : $ $ $ : : : : y ` 3.",
"U q : 5 m B B B B B B B B B B B B B B B B B B B B B B B B B B C B B B B B B B B B B B C B D B B B B B B B B B B B B B z 5 : x ^ ",
": 2 2 0 } 2.2.:.,.2.2.2.2.,.2.2.2.2.2.2.,.2.,.2.2.,.,.2.2.2.2.,.,.2.,.,.:.,.,.,.,.,.2.,.2.,.,.,.,.,.3.3.2.2.2.,.2.,.2.^ 6 3 : # ",
"2 : N ` :.2.,.2.2.2.2.2.2.,.2.2.2.2.2.2.2.2.2.2.2.2.2.2.2.2.2.2.,.2.2.2.2.2.>.:.,.,.3.2.,.,.:.,.,.,.2.2.2.2.,.:.,.,.,.%.` t : : ",
"2 : D ,.,.2.:.2.2.2.:.2.,.:.2.2.2.2.2.2.2.2.2.2.2.,.2.2.2.2.2.2.2.,.,.2.2.2.,.2.,.3.,.2.3.3.,.<.2.2.2.2.,.,.,.:.,.,.:.,.:.z : ; ",
"3 : Z 2.,.,.2.,.2.2.2.2.,.,.:.,.2.2.2.3.2.2.2.2.2.2.:.:.,.,.2.2.:.,.2.,.>.,.,.,.<.,.:.,.3.,.,.,.,.3.3.2.,.,.,.,.2.,.:.,.:.z : : ",
"> : Z 2.:.2.,.2.2.2.2.2.:.,.:.2.2.2.2.2.2.3.2.2.2.2.2.,.2.,.2.,.,.2.,.,.2.,.,.2.3.,.,.,.,.,.,.:.,.2.3.2.,.:.,.:.2.:.,.,.-.z $ ; ",
"> $ D 2.2.2.*.2.2.2.,.,.,.2.,.2.2.2.2.2.2.2.2.2.,.,.<.:.<.:.<.*.:.,.,.&.%.%.o.%.O.....%.O.@.%.*.,.,.2.2.,.2.:.2.2.:.:.2.:.z : : ",
"> $ D 2.2.2.2.2.2.2.2.:.2.:.2.2.2.2.2.2.2.2.:.2.,.:.:.<.<.<.<.<.2.2.2.b 5 6 2 5 5 5 5 5 2 6 v %.,.2.,.2.2.2.2.2.2.2.,.2.-.z : : ",
"> $ D 2.2.*.2.2.,.2.:.2.2.2.2.2.2.2.2.3.2.-.2.2.,.:.:.<.3.3.<.<.:.W D > O o o o o o o o + o ; v F Y { >.,.2.2.2.2.,.2.,.-.z : @ ",
"> : D 2.&.2.2.*.*.:.,.,.2.2.2.2.2.2.2.2.2.2.2.:.,.,.:.:.:.<.<.{ F : = : < a i i a a p p a a , O o O z ) :.2.2.2.,.2.2.2.2.z : @ ",
"> $ D 2.*.2.2.2.*.:.*.:.2.2.2.2.2.3.3.2.,.,.,.,.,.,.,.>.<.<.@.v o o , g s k d s d d d d d d s < $ o - 3 _ 2.2.2.2.,.,.2.%.z : : ",
"> : D 2.2.2.2.*.2.*.2.2.2.2.2.,.2.2.3.3.:.,.,.,.,.,.,.,.<.@.u ; - & p d p a s p d d d d d d k k i * > @ > D 2.2.2.,.2.2.%.z : @ ",
"> : D 2.*.2.*.2.2.*.,.:.,.,.,.:.2.2.3.3.2.,.,.,.,.,.>.,.<.R o o & h a < < & , a s d d d d k k k k k p % o 7 ` &.:.2.2.2.2.z : @ ",
"> % D 2.2.2.2.2.*.2.2.*.*.:.,.,.2.3.3.2.2.2.,.,.>.,.,.<.W + o , g h i * * # % i p s d d d d d d d k p & @ : > ( *.,.,.,.1.z : $ ",
"> $ D 2.2.2.2.2.<.<.<.<.<.<.<.<.<.<.<.<.<.<.:.:.#.<.#.| L   O i h i * * * # # * * * < g p d d d d d k < % $ % _ >.*.>.<.:.z % @ ",
"> : D 2.2.2.2.2.<.<.O.[ ] ] @.<.<.<.<.<.<.;.:.:.<.#.| 4 o o , i i * * * % o o & $ @ @ $ < s d d k k k i % $ O v ` *.>.<.%.z : ; ",
"> $ D 2.2.2.2.2.<.<.K ; + + R <.&.*.<.<.<.>.>.>.<.<. .- o , , < * * * * # X @ & % o X = $ i d k k k k < o o X o D <.>.>.%.z : $ ",
"> : D 2.2.2.2.2.%.v 1 o o . K <.&.<.<.<.,.:.>.>.<.<. .; @ , , , * * * * # o = * % . X X . # > * k h h , X X X X C >.>.>.-.z : : ",
"% : D 2.2.2.2.$.n - X @ 3 o K #.*.>.,.>.>.,.,.>.<.<.| ; o < < < * * * * @ . # * % X X = = . X @ s s i % . : v G ( *.>.>.%.z $ $ ",
"> : D ,.2.2.2.J o o X ; , o K <.>.>.>.*.,.,.,.*.#.<.| + o & < & * * * * # o % * $ ; ~ X.S o X : s a & & $ l ( #.#.*.>.>.-.z $ $ ",
"> : D ,.,.,.,.G o o . # , . K <.*.#.#.*.,.,.,.>.*.<.| + O < < < * * * > o @ * * : 5 5.7.~ o O # a i < < i < 9 F | *.>.>.:.z % ; ",
"> : D >.,.2.2.J . o # , < o K <.#.*.#.#.>.,.,.>.<.<. .+ o , < < * * % # o @ * * $ > 1.6.Q . $ % < < i i < # + + w v I ..=.z : # ",
"> : Z ,.,.>.,.F X % , < < @ K >.>.>.#.*.*.<.*.<.>.<.| + o 3 , < * % O @ # % & * & * b n j & * * * < s p < # o X X o + r O.z : @ ",
"> : D 2.,.,.,.F X % < i i # K #.>.>.>.>.*.<.<.:.>.>.@.C w . # , & # # $ & & * * * * i * i < i * i i s s s 8 + = o o X 5  .z : $ ",
"> : D 2.,.>.>.D o , a a a % z Y :.<.<.>.<.:.<.*.<.*.<.<.^ c # # $ # % * * & * * * i i a i i i i s d d k k * o o X o X 5 o.z : @ ",
"> : D 2.,.>.>.D X , p p s < O 4 { &.<.<.<.*.<.<.#.@.<.<.<.@.4 o @ % * * & * * * * i p p i s d d d d d k h * o o X X X e o.z : : ",
"> : D ,.,.>.,.H X , s s s < % # 3 I <.<.K t u y y u c u u u + o % * * * * * * * * i i p s d d d s d d d s < # o X X = 5  .z : ; ",
"> # D 2.2.,.2.J . % a d s i , % $ 9 c K w . o o o o . o . o o # i * * * * * * * * * * i p s s d s d d d s i $ @ = = X 5  .x : : ",
"> : D ,.>.>.2./ 7 O % < i < , , % O . o 3 < a i a a a h < @ + 3 < * * * * * * * * * * * * p i i 8 * & & & $ $ @ $ @ . ; | z : @ ",
"> : D 2.2.2.,.,.} 1 o $ % , , # O O $ , p d d d d d d k k < , , * * * * * * * * * * * * & % % $ o o X X o o . . X o > z ..z $ ; ",
"2 $ A <.&.<.<.<.<.^ w . O O O o & d d k k k d d d d d d d d d p * * * * * * * < * * * & O 9 e @ $ % % % & $ o o . 5 ( @.&.z $ # ",
"3 $ Z <.<.<.#.#.<.<.I u + o o O i k k d k d d d d d d d d d d d i * * * * < < * * * * & @ H M # * * & & & $ o . t _ *.>.%.z % $ ",
"3 $ A <.<.<.%.<.<.@.<._ 5 + O , d d k d d d d d d d d d d d d d s i i * * < * * * * * & o = = o O O o o o o o X D <.<.>.%.z : @ ",
"2 % V <.<.<.<.<.<.@.@.<.O.t 2 h d d d k d k d d d d d d d d d d d d d i i * * * & & & % . o o . X X X o X X   v ..,.<.>.%.z : : ",
"2 $ Z 3.<.<.%.<.<.<.<.<.<.y # d d d d d d d d d d d d d d d d d d d d s i * * & # # # O . . . . X . o o 5 7 c ` ,.>.,.,.%.z : : ",
"> % Z <.<.<.<.&.<.<.<.| n 3 , d d d d d d d d d d d d d d d d d d d d d p i i * & & & & & & & #       t $.-.,.,.,.,.2.,.:.z : @ ",
": : Z ,.<.<.<.<.<.<.<.] + 2 d d d d d d d d d d d d d d d d d d d d d d d d p i i < * * * * & % X . t ` 2.,.,.,.,.,.,.,.-.z : : ",
"3 : Z ,.@.<.<.<.<.<.<.] + 2 s d d d d d d d d d d d d d d d d d d d d d d d s s p i < * * * * % o O ` ,.,.,.*.,.,.,.,.,.-.z : @ ",
"> : D ,.,.,.,.2.<.<.<.] - ; s d d d d d d d p i i p d d d s d d d d d d d d d d s p i * & & * & o ; | ,.>.,.,.,.,.,.,.2.:.z : : ",
": : D ,.,.,.2.,.<.<.<.] + O s d d d d d d p < * * < i i i p p s s d d d d d d s s p p * * * & & o ; | ,.,.,.2.2.,.,.,.3.:.z : : ",
"3 % Z 3.2.,.2.2.<.4.<._ + # a s d d d d i < * * < & < % < < < < p d s d d s s s p * * * * & & & o ; | ,.,.,.,.,.,.,.,.2.2.z : @ ",
"> : Z :.,.,.,.2.<.<._ 4 X @ s d d d d d i * # % % & & , * * * * < s s s d s s i * * * * & & & & o ; +.,.2.2.2.,.,.2.2.2.=.z : : ",
"> : D ,.2.,.,.,.<.U w o O , p d d d s i < , # . # , , , , , 2 2 * d s d d s p < * * * * * * * & o ; | ,.2.2.2.,.,.2.2.:.=.z : ; ",
"> : D ,.,.,.,.,.<.7 + 8 i p d d d d s , # # O , , , , # o o o X % d d s s s i * * * * * * * < & o : | ,.>.,.2.,.*.:.2.2.2.y : : ",
"> : Z ,.,.,.,.,.=.e # s d s p p i a < O o . # i < , , # . . - X % s s s d p * % # # & * i p i * o ; | ,.>.,.,.,.:.,.2.2.=.z : # ",
"> : D 2.2.2.,.,.<.7 # s d s , 2 O O o o o . , p < , , @ v L v X % s s s s i # . . O # * p p p * o ; | ,.,.,.>.,.,.,.2.:.2.z : : ",
"> $ D 2.2.2.,.,.:.e # h k h * O o ; 1 1 ; o $ p p < , o ] <.! X $ s d s d < ; v F R 6 % p s p * o ; | ,.<.:.<.<.:.:.:.,.:.x : $ ",
"> : D ,.,.>.*.>.-.e o h d s * O + P  .O.E o , p i < , O ' <.E X # s s s h < ; [ <.:.w % s s s , o o Z ) :.<.<.<.<.<.,.,.:.x : ; ",
"> : D 2.:.,.>.>.-.6 o g k h * @ O ^ <.<.` o 2 < < < # o ! <.E . 2 p s s s < @ ] <.&.w # h d s a @ o o 7 %.<.<.>.:.<.,.<.:.z $ $ ",
"> : D 3.2.,.,.,.-.e o * p h * # O ^ <.<.^ + O , < , O o L <.! X # p d h h < O q K <.F $ a s s h & $ + 5  .<.<.*.>.,.,.,.2.z : : ",
"> : D 3.2.,.,.,.-.e o $ * * * $ o P %.<.^ = + * , , # o $ n ! X O i i i i < # o 0 U { ; $ < k s i % + o 7 W <.>.,.:.,.2.=.z : ; ",
"> : D 2.,.,.,.,.-.7 . @ * * & & % + V <.` 7 : : % % , 2 X u ] y + $ < < & , % O O 4 { v ; : < f i & $ o X Z <.<.>.>.:.2.2.y : : ",
"> : Z ,.:.:.,.,.-.7 . - & % & & % o t 3.:.%.c X o o O + X t <.%.4 @ < < < , , , 2 4 @.@.r . = - + = o o X C <.:.,.:.>.,.-.z : @ ",
"> : Z 2.>.>.,.,.-.y = o O O O O - X r :.<.<.M : ; 2 ; 2 1 u <.%.u @ # $ $ # O # O 4 | <.m - : : ; > 1 ; + A <.<.,.,.:.>.-.z : @ ",
"> : D 2.,.*.*.*.,.%.F X o o X = o X r :.2.2.&.....o...| ..+.,.2.<.L X o X X = X X : o.>.$.} | ....| | | | %.2.2.,.>.*.>.-.z : : ",
"> : D 2.,.:.*.,.,.,...R T T T T T Y ) 2.2.2.2.>.,.,.,.,.,.,.,.2.<.} P E E E E ! T ^ -.2.,.,.,.,.,.*.,.>.,.,.,.,.,.,.,.*.-.z : @ ",
"> : D 2.*.&.:.,.,.,.>.>.<.>.<.>.>.,.,.2.,.2.2.2.,.,.>.,.>.,.>.:.&.<.<.<.<.<.<.<.,.,.,.,.>.:.,.2.*.#.&.#.,.,.2.2.,.>.,.,.1.z : : ",
"5 : Z ,.,.,.,.,.*.>.*.*.#.:.:.,.>.,.>.2.>.:.2.2.2.,.,.,.>.>.2.2.<.*.*.*.:.<.<.:.>.,.>.,.>.>.:.,.&.*.*.*.,.2.3.2.2.,.,.:.&.z : O ",
": : 0 N %.2.2.,.,.,.>.,.<.<.<.<.2.,.2.2.,.,.,.2.2.2.2.,.2.2.4.4.,.,.,.,.>.<.<.<.,.2.2.2.,.,.>.,.,.2.,.,.2.3.4.2.2.3.4.` z 6 > ; ",
"m 6 : 5 H E T T U T T T R T T R T T Y R T T Y T T R T R Y T T T T Y T T U T T U T T Y T T T T Y T T T R T T T T T T T M > : 0 N ",
"&.m 6 5 : : : > : : > : : > % : > : > > > : > : > > > : > : > : : : > : : : % : > : > > > : > $ > > > : > : : > > > : > > 6 J 2.",
",.$.C : 3 > > > > > > > > 3 3 3 > > > > > > > % > > > > > > > > > > > > > > 3 3 > > > % > > > > > > > > > > > > > > > > 6 Y -.2."
};
