/* XPM */
static char *collectable[] = {
/* columns rows colors chars-per-pixel */
"64 64 188 2 ",
"   c #4E2E1C",
".  c #532F1C",
"X  c #4F301D",
"o  c #54311E",
"O  c #5B321D",
"+  c #64341C",
"@  c #6B351C",
"#  c #653B1F",
"$  c #693A1E",
"%  c #72371C",
"&  c #753B1C",
"*  c #7B3A1C",
"=  c #553320",
"-  c #5C3620",
";  c #5D3D25",
":  c #603720",
">  c #663D21",
",  c #683E21",
"<  c #723B22",
"1  c #7C3D22",
"2  c #5F4025",
"3  c #644125",
"4  c #6A4326",
"5  c #654128",
"6  c #6C4629",
"7  c #6E492A",
"8  c #75452A",
"9  c #7B4428",
"0  c #734D2C",
"q  c #79492E",
"w  c #77512D",
"e  c #7A4F31",
"r  c #765435",
"t  c #7A5535",
"y  c #7E5A36",
"u  c #7B5638",
"i  c #7D5839",
"p  c #833C1C",
"a  c #8C3D1C",
"s  c #923E1C",
"d  c #983F1A",
"f  c #824319",
"g  c #8B421E",
"h  c #94411C",
"j  c #9C421C",
"k  c #A4431D",
"l  c #AB451C",
"z  c #A54A19",
"x  c #AD491D",
"c  c #B24616",
"v  c #B34916",
"b  c #BB4D15",
"n  c #B1461B",
"m  c #B44B1C",
"M  c #BA4C1C",
"N  c #BE5116",
"B  c #B5511E",
"V  c #BB531C",
"C  c #B9601B",
"Z  c #854223",
"A  c #8A4422",
"S  c #824F2F",
"D  c #944923",
"F  c #8A542F",
"G  c #835432",
"H  c #845A36",
"J  c #895934",
"K  c #875C39",
"L  c #8C5E3A",
"P  c #9D5B32",
"I  c #A44C22",
"U  c #AB4C21",
"Y  c #B24D20",
"T  c #B94F20",
"R  c #AE5223",
"E  c #B35221",
"W  c #BC5420",
"Q  c #8C653F",
"!  c #93613B",
"~  c #98683F",
"^  c #C34F16",
"/  c #C14E1A",
"(  c #C35416",
")  c #CA5415",
"_  c #C55A16",
"`  c #CC5D16",
"'  c #C3541C",
"]  c #CB5519",
"[  c #C55A1C",
"{  c #CB5C1B",
"}  c #D25D17",
"|  c #D35D1A",
" . c #CE6217",
".. c #CE621B",
"X. c #D46317",
"o. c #DB6617",
"O. c #D76915",
"+. c #DC6C17",
"@. c #D3641C",
"#. c #DA6519",
"$. c #D56A1C",
"%. c #DB6D1D",
"&. c #DF7017",
"*. c #DE711C",
"=. c #E36E19",
"-. c #E47216",
";. c #E67817",
":. c #EC7C17",
">. c #E2741C",
",. c #E97619",
"<. c #E57A1B",
"1. c #EA7D1A",
"2. c #F17F18",
"3. c #C25620",
"4. c #C55B21",
"5. c #CA5D21",
"6. c #CD6122",
"7. c #D36521",
"8. c #D66921",
"9. c #DB6B21",
"0. c #DE7121",
"q. c #E27220",
"w. c #E57D23",
"e. c #E97F20",
"r. c #8D6540",
"t. c #9D6742",
"y. c #976D45",
"u. c #996F48",
"i. c #977046",
"p. c #9B7047",
"a. c #9B7249",
"s. c #A06B44",
"d. c #A37446",
"f. c #A4754A",
"g. c #A5784A",
"h. c #AB7B4C",
"j. c #AC7E51",
"k. c #ED821D",
"l. c #F48417",
"z. c #F88717",
"x. c #FC8D16",
"c. c #F2851B",
"v. c #F58A1D",
"b. c #FA8D1A",
"n. c #FE9016",
"m. c #FD921C",
"M. c #E78124",
"N. c #EC8421",
"B. c #EF8925",
"V. c #F18720",
"C. c #F48B22",
"Z. c #F28E2C",
"A. c #FC9422",
"S. c #F59128",
"D. c #AD8153",
"F. c #B28554",
"G. c #B38658",
"H. c #B68858",
"J. c #BF8D59",
"K. c #BD915F",
"L. c #BE9361",
"P. c #C18F59",
"I. c #C3925B",
"U. c #C8955D",
"Y. c #C69964",
"T. c #CC9B63",
"R. c #D19F64",
"E. c #D4A267",
"W. c #DAA566",
"Q. c #D4A56C",
"!. c #D8A76D",
"~. c #DCAA6D",
"^. c #DDAD71",
"/. c #DFB074",
"(. c #E4AE6D",
"). c #E9B36F",
"_. c #E1AE71",
"`. c #E4B274",
"'. c #EBB673",
"]. c #EFB976",
"[. c #EAB779",
"{. c #EFBA7A",
"}. c #F0B771",
"|. c #F1BA75",
" X c #F1BD7D",
".X c #F4C07E",
"XX c #F2BF80",
"oX c #F3C182",
/* pixels */
" X[.y.> > 3 , $ , , , , , , , , , , , , , , , , , , , , , , , , , , , , , , , , , , , , , , , , , , 4 $ , , , , 4 > > 5 3 g.`. X",
"[.y.4 3 3 > , 4 4 , , 4 , , , , > > , , , , , , , , , , > , , , , , > > , , , , , , , , 4 , > > , , , 3 > > , , , , 3 > 5 6 y.[.",
"~ 7 3 4 D.K.L.L.L.L.L.L.L.Y.L.L.I.Y.I.Y.L.Y.L.L.L.Y.L.L.I.L.I.I.I.L.L.Y.L.Y.I.L.Y.L.L.L.K.Y.J.L.L.I.L.L.Y.L.L.L.L.L.Y.D.3 3 7 ~ ",
"O 3 6 H ^.XX XXXoXoXoXoXXXoXoXoXXXXXXXXXXXXXXXXXXXXXXXXXXX{.XXXXXXXXXXXXXXoXoXXXoXoXoXoX.XoXoX X X X XoXoXoXoXXXoXoXXX^.y 7 3 3 ",
"3 3 y.`.{..XXXXXXXXXXXXXXXXX X{.{.XXXX{.XXXX XXX[.XXXX{.{. X{. X X{.{.{.XXXX{.XXXXoXoXXXXX{.oX{.|.{. XXXXXXXXXXXXXXX.X{.`.i.> 3 ",
"3 # i.{.{.{.XX{.XXXXXXXX XXXXX XXX{.XXXX X{.{. X{.XX XXXXXXX X XXXXXXX XXXXX[.{. XoXoXXXXXXXoX X X XXXoXoXXXXXXXXXoX{..X Xa.> , ",
"# > p..X{.{.oX{.{.XXXX{.{.XXXX{.XXXX{.XXXX{. X{.XXXXXX X X X X XXXXXXX{.{.}.[.{. XXXXXoXoXoXoX X X|. XXXoXXXXXXXXX{.{. X{.a.> > ",
"O > i..X.X.XoX{.{.{. X{.XXXX{.XXXX{.{.{. XXX XXXXXXX{.XXXX X X{. X X X{.{.{.}.{.{.XX{.oXoXoXoX{. X[. XXXXXXXXXXXoXXX{.{..Xa.# 4 ",
"@ > u.XXXXXXXXXX{. XXXXXXXXXXX{.{.{.[.{. X X X|.{.{.{.{.{.{.{.[.{.{.{.{.[.[.'.[.]. X X|.].{. X.X{. XXX{.XX X{.XXXXXX X XXXa.> , ",
": : u.XX{.XX{.XX X{.XXXXXX{.XX{. X X X{.|.XXXXXXoXoXL.u i i t t G i i u u u t p. X|.|.].]. X X XXXXXXXXXXXXX{.|.{.[.{. XXXp.> > ",
"> > u.XXXXXXXXXXXXXXXXXXXXXXXX{.XX XXX|. XoXQ.G.D.D.H o = = o X     X X X o o 5 D.D.F.`..X X XoXXX X X X{.XX X{.{.{.|.{.XXa.> , ",
"+ # t.XXXXXXXXXXXXXXXX{.XXXX{.XX{.|.XXXXXX_.K . o o o o * h j h a D s a p p O o X o O I.[. X X.XXX XXX X X{. X X{.{.XXXXXXa.> > ",
"> # y. X{.{.XXXXXXXX X X{.{.{. X{.|.XX[.Y.0 - O + @ + @ k ) | | ] / / M v x % @ + + O 3 H `.{.oXXXXXXX X X{. X XXXXXoXoXoXa.> , ",
"> # p.oXXXXXXXXX{.{. X X{.{.{.{.|.|._.H : o = o p x n v M #.l.z.#.n n / ] | | ' m a O o = 6 D.oXXX X X|.|. X X{.{.XXoXoXoXa.> , ",
"# # u.XXXXXX XXX{. X X X XXX X{.|.T.y O o X + p l ] | M / o.b.n.l.+.$.{ ] ] | ] X.$.C $ = o 5 L _. X{.|. X X X{.{. XXXoXoXa.> > ",
"# > u. X{.XXXX X{.XXXX X X X{.{.Q.y.. = o o p M { =.1.) ^ } :.x.x.n.x.-.] ] ^ | l.x.k.f O O O - G._. X|. X XXXXX X XXXXXoXa.> , ",
"# # p.XXXXoXXXXX XXX{.XX X X X(.q O = = + k n _ V.x.b.c.#.^ b +.z.n.x.x.z.,.( =.n.n.b.&.V k % O O u.|.|.{..X XoXoXoXXXXXXXp.> > ",
"# > p.oX{.XXXXXX X X{. XXX XE.t.> O @ * j M b ' 1.b.m.x.z.+._ b &.b.n.x.x.z.} } :.z.z.;. .( z 1 O 5 d.'.{.{..X{..XoXoX{.{.p.> > ",
"# # y. X{. X{. X X X|..X X XF.O - @ I x _ %.| ] M -.b.n.x.x.:. .N O.x.n.x.x.-.) ) O.<.N  .1.1.V @ O 5 `. X.XoX{.{.XX X{. Xa.> , ",
"# # y. XXXXX X XXXXX XoX X.Xj.+ - @ n | V.A.m.1.( _ $.n.m.n.x.b.` ( 1.n.x.x.z.1.} ^ b v *.m.m.<.v & 8 _..X{.oX.X{.{. XXX Xa.# , ",
"> > u.XXXXXX X X X X X.X|.J.e O O % n _ 1.A.m.m.k.X.( ` k.m.b.x.:.O.X.X.=.x.x.x.2.} ( &.v.A.n.<.] p O J E..X{..X[. X XXXoXa.> , ",
"+ > u.oXXX X XXXoXoXoXoX[.G O @ @ p n M | C.m.m.b.l.+.N ` :.m.n.n.z.;.( #.z.x.z.z.` ) c.A.n.b.;.( s + + P..X.X.X X X{. XoXp.> , ",
"> > u.XXXX XXXXX X XoX X[.F p k V { #.] M $.b.A.m.n.z.-.( ` v.n.n.x.z.,.#.o.l.:.( N ` b.n.z.-. .^ M j $ P..X|..X|. X{. X|.a.> , ",
"# # y.XXXXXXXX X.X X X X{.F a n w.C.b.-.^ b _ C.m.n.n.z.` b _ b.m.x.x.x.-.| o.X.v ..C.b.l.l.N N +.+.B @ P.|.|.{.{. X|. XXXa.# , ",
"# # y.XXXXXXXXXXoX X|.F.t.A k l 7.1.b.z.1._ n @.C.m.m.b.<.X.b ..c.n.x.x.z.,.( b $.k.b.b.;._ N ..-.:._ a J d.'..X X X X X Xd.> , ",
"# # u.XX XXXoXoXXX X[.e O d l l n { 1.b.b.>._ m *.k.m.m.x.1.` b *.b.x.b.l.&.N N k.n.v.:. .v _ &.<.:.X.l O 5 ^..X X X X XXXu.: , ",
"# # p.oXXX XXX X{.XX{.u O d n n l l { V.A.b.1.( v ..C.A.m.n.1.N b O.b.b.O.b ` +.c.b.l.( v  .*.k.c.k.@.k O 3 /. X|.{. X X Xa., , ",
"# > p.XXXXXXXX X X{.[.u O d n M { { m 7.N.A.A.k._ v  .C.A.m.b.1._ ` :.l.O.N *.v.l.l.;.( V *.v.k.k.k. .k O 3 ^..X X{.{.{. Xu., , ",
"# # u. X XoXoX X{. X[.r o h n M 9.$.V V V >.A.A.v...c [ k.m.m.v.k.O.N N N +.v.A.x.&.N b 8.C.C.1.<.{ M l O > ^..XXX|. X XXXa., , ",
"# > y. X X XXX X|. X{.r o h Y T $.q.q.4.l [ e.A.A.*. .v [ *.m.n.x.;.b c _ k.b.c.c.X.v +.N.C.k.<.>.N m x O 3 ^. XXX X[. X Xu.> , ",
"# # y. X X XXXXX X X{.r   s x / 9.=.8.{ B l ( N.A.b.k._ v _ C.b.l.O.V _ *.b.v.l.*. . .v.C.k.1.>.%.] ' n + ; ^.|. XXXXX X Xa.$ , ",
"# # y.oXoXXX XXX X X{.r o a l / $.9.M [ %.{ m _ B.A.A.B._ _ >.k.&._ N k.v.k.:.>.N  .C.C.k.:.>...( %.@.m O ; ~.|. X X X X Xa.> , ",
": > a.oXoX{.oXXX X{.[.r . s l T 7.V l [ >.0._ m { N.A.A.k. .V N N _ N.C.k.k. .N 0.B.C.k.M.&._ [ $.%.7.V O 5 /..X{.{.{..XoXa.# 3 ",
"> > u.oXXXXXoXoX X}.'.r . d n n V m 4.$.0.>.0.V x [ *.C.k.$.m l N <.v.k.k.;. .c M.S.v.k.k.*.[ _ 9.%.{ m O 5 `..X{..X X XoXa.# $ ",
"> # i.XXXX{. X X X}.`.e . d n M m ' q.q.>.9.8.W l c N >.*...V ..$.N.k.k.k. .N [ M.C.k.*.&.$.$.%.=.q.5.k O 2 _. X{. X.X X.Xa.# 4 ",
"+ > p.{.oXoX X X{.{.[.r . p k M W ] 0.q.$.5.B m V m V 7.V v M.B.k.k.;.*.*.N [ Z.S.k.&.$...B @.%.9.7.' k O 3 ~.|.{. X{. X.Xa.# $ ",
"> , y. X X XoX X{.{.[.t X o p T 5.7.7.9.6.l l 8.%.4.x M [ $.N.k.*.k.*.V N 0.B.Z.k.<.<...V 7.9.>.9.' n d O ; ~.{.|.{.]. XoXa.3 # ",
"# # u.|.{. X X{.{.|.[.r X o p Y 3.3.m B W 4.4.8.9.[ x V $.k.k.<.k.*...V ..B.S.k.k.*.....{ =.w.9.5.W d + = ; ~.|. X{.{. XoXa.> $ ",
"+ > u. X{. X X|. X X[.e . O p n l k I k E 9.9.8.4.B V *.<.>.<.>.$.C z $.B.B.k.k.*...m { 9.%.%.7.l n j + o 3 `. X].{. X X.Xa.# 4 ",
"> > u.XX.X X X X X|.|.T.f.- 1 U k l 5.7.8.9.7.6.l V 9.>.>.>.*.$.V B 8.M.k.;.k.*.V m 7.%.%.%.8.5.n M j O H T.'.|.|.{.{. X Xa.# # ",
"# > p.oXXXXX{.{. X|.|.|.R.- : s k U 6.9.7.9.T l 4.7.=.*.*.>.*.B B 4.M.k.k.<.$.B [ ..@.9.9.9.' m 4.M s o y.|.|.|.|.{.{. X{.a.> , ",
"# # p.oXoXXX XXX X|.{.|.R.6 : a l k U 5.5.Y Y 3.7.9.q.9.7.8.6.m 6.*.<.<.<.$.4.m @.*.%.*.7.3.W 3.M d @ O t.|.|. X{. X|. XoXp.> , ",
"# # u.XXoXXXXX X|. X|.}.'.(.L * l l k T 3.Y 3.9.9.9.5.5.Y m W ..*.*.0.<.9.6.m 7.9.%.9.@.3.Y 3.3.l % o O p.|.|.|.|.{.XXXXXXa.> , ",
"# # y.XXXXoXoX X X X X|.|.|.g.@ k Y l l 3.9.7.9.9.7.Y I E 4.7.q.0.0.0.0.6.m 4.9.q.9.8.E Y 6.5.M n % 3 I.(.|.|..X{.|. X XXXp.# , ",
"# > i.oX XoXoX{. X X|.|.|.|.f.O p k l 3.7.9.9.9.5.U k k 4.9.9.9.%.9.5.m x 3.9.9.9.7.x k T 7./ Y j @ 8 (.|. X X X X{. X X Xp.# , ",
"# > u.oXXXXX X{.|. X X X{.|.T.S - @ k 5.9.9.5.W Y k Y 3.7.9.9.7.4.6.Y Y 4.7.9.9.4.m x W M 3./ d + : ! '.|.|. X X X].{.oXXXa.# $ ",
"# : p.oXXXXXoX X X XXX X{.|.{.T.: + k T 7.5.3.I k Y 5.9.9.9.7.4.R I U [ 9.9.9.5.l l m 3.M n k 1 O L U.Q.E.R.`..X|.{. X.X.Xa.# , ",
"# # y.XX X X XXX|. X X X|.{.{.[.j.q @ s n l k k U 5.8.9.8.8.5.l j k 5.9.9.9.[ l l m 4.M n k + . o + < , , $ y.|. X XoX X Xa.# , ",
"# # p.oXXX X{.XXXX X X X X|. X X.XU.H , @ @ @ a 4.9.9.5.M l U U T T 7.9.7.V M n n n M j % O # & & p g A g A P J.'.].{. X{.a.> , ",
"# # p.oXXXXXXXXXXX X|. X X X X|.|.|.'.w O = . p M ' W T U U U W 7.7.7.7.4.m M m M M x @ O - D 3.4.6.6.5.5.6.R 8 !..X.XoXoXp.# , ",
"> > u.oXXXXXXXXXoX X{.XX X.X X|.}.}.).W.g.O O + % * % % j 5.6.[ 7.5.Y n M M k k l s & o t T.~ 1 1 Z Z Z Z W E q ~..X{.oXoXa.# , ",
"# > u.oXXXXX{.XXoXXX{. XoX.X X X}.}.}.|.W.g.6   .       g E m x n n l l x d + O O o O y.I.|.I.g.f.g.f.g.8 E E q ~..X{.{. Xa.# , ",
"# # a.oXoXXX XXXXX X|.XXoX X{.|.].}.].|.}.}.p.0 6 8 > o O @ @ @ + + + + + O o ; 7 0 H (.|.}.|. X X X X[.S Y R q ~. X X{. Xa.$ , ",
"# # a.oXXXXX XXX XXXXXXX.X X{.{.|.}. X|.|.}.].).(._.h.o o o o o = = o o = o o y `.`.'.|.}.}.}.|.|.|.).Y.9 B R 8 ^. X X XoXa.# , ",
"# # p.oXXX{.{.{.XXoXoXXX{.{. X|.|. X X X X X X|.|.|.(.P.I.P.P.I.I.U.I.I.U.I.I.E.|.|.|.|.].}. X|. X.XR.8 A 3.I 8 !. XoX{..Xa.# , ",
"# : p. XXXXX{.XX X XXXXX XXXXXXX.X X X X|..X X}.|.}.'.|.|..X|.|.|.|.|.|.}.}.}.|. X X X|.}. XJ.t.t.s.! 9 A A 9 G ~. X{..X Xa.# , ",
"# > u. XXXXXXXXX X{.XXXXXXXXXXXX{.{.oXoX X X X X].{.|. X|. X|.].|..X{.].].}.].}.oXoX.X|. X.Xy.< D U U E E 1 L `..X{. XoX Xa.# , ",
"# > u.XX{.XXXXoX X X{.XX{. XXXXXoX{.XX{. X{.{. X X|.|. X.X X|.|. X X.X{. X X].|.oXoX X X X.Xp.: 1 Z A A Z t.Y..X.X{. X X Xa.> $ ",
"# # u.XXXXXXoXXX XXXXX{.{. XXX XXXXXXXXX.XoX{. XXX|.{.|. X|. X{. X{..XoX{.oXoX X X{.{..X.X.XT.D.G.G.G.D.D.^..X{.{.{. X{..Xa.# 3 ",
"> : r.^.{. X{.oXoXXXXXXXXX XXXXX{.XXXXXX X XoX XXXXX X X X X XXX.X X.X{..X X.X X{.{.oXoX.X{.oXoX X.X.X.X X{.{.{.{. X X].Q.~ # 3 ",
"# 5 3 w ^. X.XoXoXXXXXXXXX XXX{.oXoXoXoX{.XXoX XXXXXXXoXoXXXXXoXoX{.XX XXXoXoX{.{..X{.{. X{.{. X X X X].{.{.{..X{.{..XE.0 3 3 4 ",
"D.0 3 6 r.y.y.i.i.i.u.y.y.y.y.y.y.u.y.y.u.y.y.y.i.i.u.u.y.y.y.y.i.y.y.y.y.y.i.u.y.y.i.y.y.y.y.y.y.y.y.y.y.y.i.y.y.y.y.Q 3 3 w H.",
"{.d.7 > > > $ , > > # # $ , > > # $ , # > > > > $ , > > > , > > > > # # # # > > # # # # # # # # # # # # # # # # # 3 # 3 3 0 g.{.",
".X[.i.# > : + > : > # # # # # : # > + # > > + # # : > : + # # + > > # # # # # # # # # # # # # # # # # # # # # # # # # # 3 F.]..X"
};
