/* XPM */
static char *empty[] = {
/* columns rows colors chars-per-pixel */
"64 64 19 1 ",
"  c #6F3C1E",
". c #703D1F",
"X c #743F21",
"o c #764122",
"O c #7C4625",
"+ c #7E4827",
"@ c #7F4828",
"# c #804726",
"$ c #824826",
"% c #8D4B26",
"& c #854A28",
"* c #8E4D28",
"= c #964D27",
"- c #994E27",
"; c #954E28",
": c #9A4F28",
"> c #965029",
", c #9D5129",
"< c #A0542B",
/* pixels */
"oOOO#+O@@+++++++OO######X@@@@@##X@X&X@X&#o#OOO@@@@@@@@@@@@#X@@XX",
"oO@&$$#&$$&&##&$%#####$&&&&&&&$$&&&&&&&&#%%#$%@%%@$@&&&@#$&&&&@X",
"o@*,>,,,>,,,:,::--::::::<,::,<:::::::;>;:<<<::,,:<:::,::::,,,>&X",
"oO>,,<<<,::,,,,,:::,<<,<<<<:<<<<:,<<,:,:,<,<,,,<<<<:,<<<::<::>&X",
"o+;,<,,>,,,,::>,:::<<<,,<,,,,::,<:<<::,,<,,,<,,<<<<::<:::<<<<>@X",
"o+*:,,,,<<<,:,,<,,<<<<<,,,,::,<<<::<,,<<<,<,,,,<<:<<<<<<<<<,<>@X",
"o+*:,,,,<<<<<,,,,,<<<<<<<<,::::::::::<,<,,,,:<,<<::::::<:::,:=@X",
"o+>>,<<,<<,,,::,,<<<,<,<,<::,:<<:,<:,:::,<<,,<,,<<<:<<::<:::::@X",
"X@;,<<,,,<,,,,,,:,<<<,<,,,,,,,,,,<<<,:::,<<:,<<<<<<,:>,<<<<:<<@X",
"X@*:,,,<,,<,,<,,:<<<<,,,,,,,,,,<,<<,:,<,,:<<<<<<,:<<,,,<<<<<<:@X",
"X@;,,::<,,,<,<,::<,<<<:,,,<,,,,,<<<,:<:<<::<<,,,,,>,,<,:<<<<,:$X",
"X+;,:,,<<,,,<<<:<<<<<<,:-,,<,,,,:<<::::<,::<,<,,,::,,<<::<:<<:$X",
"o$;:::<<,,,:<<<,<<<,,,,,,:,<,,<,:<<,,::,<:,<,,,::::::,<,<<,,,,&X",
"O$;<<:::,,,,,<,<,<,<<,,,,,,,,<<,:,,,<,<,:,:<,,,,,:<<<<,,<,<>::&X",
"o$;<<::,,,,:,::<<,,,,,,,,,,,<<<,::::,:,,::,<,,,<::<<<<,,,,,,,,&X",
"X@;<,,<<<<<<,:,,,::,<<,,,:,,,,,,,:,,<::<:<,:<,,<,,,:,<,,,:,,,,&X",
"o$;<,::,:<,:<<<:::::<<:<::<:,,,,<<:<<,,<,,,,<<<,<,,,,,,::,,,,:#X",
"o$>,:<<,<,:::<<::<<<<:::<:,<<<,:::,<,,,,,-,,<,<:,,::,,,,,<,,<:&X",
"o$;::<<,,:<:<<,<<,::<<<<<:,,<<,:-::,,:::--,<<,:<<,,,,,,,,,,,::&X",
"X@;;::,::::::<<<<-:<:<<<<<:,<,,::--:::<<,,,<<<,<<:,,,,,,-,,,<:&X",
"X@*<,::::,::<<<<<:::::<<:,,<,,,<<::-:,,,,,,,<<<<<,,,-,,,:,:<<;#X",
"O@;,,::::<<:<<,,:,<,,<<<<:,,,:,,,<,<<,:,,,-,<<<<,,,:,,,,::<,::&X",
"X+><::::::,,<<,,:,:::::<<<,,,,,:::::,,<<,<,,:,,,,,,,,,,-::,,<:&X",
"X+;<<:<:,,,<,,:,,::<:-::<,,,,:::,,:<<,,,,,,,,,,,,,,,,:,-:<,<,:&X",
"X+;,:,<,<<<<<,,,<:,<<,::::<:---::,<<::-:,::,::,:<<<,,,,,:<<:<:&X",
"X+;::,,,,<<<<,,,:,,:<::--:::;---::<:----,:::<<,,,,<<,,<<::<<<<&X",
"o#;,,:,,,:<<::,::,,,<:=----=--::::------:--:-,,,,<,,,,,,::<<,:&X",
"o+><<:,,,:,,,,,,,<,<<:-:,:-=::<<,:-------:::-:,-:,:,,,,,:,<::=&X",
"o#><,>:,<:<,,,,::<,,<<,::::::::::,,<,,,<:,:---,-,:,,,,,<<::;-;&X",
"O#>,<,,:<<,,:<,:::,::,,,:::,:::<,:,,,,,<,,,-<<<<::,,<<,,<,::::&X",
"o+;>,,,<:<,::::<<::,:,<,<,,<,<::::,,,,,<,,:-<,<:,:::-:,,,,-:,:&X",
"o+;:,::::,:<:::<<::::,,::<:,:::::<,<,,,,,:,,:-:::,<,-<<,-:::,:&X",
".#-,,----,,<,,,<----,,-,--<<-<,,:<,,,,,,,<-<----,<,,<<---,--,-%X",
"X#-,,<<<<,<<<,,,------<-<<----,<:::::,,,<<<-<<<-,-,,<<,<,,,,<-%X",
"X%-,,<-<,<,<<,,-,--<<<,,<<----,-:::--,,<<,,,-,,<<,-,,--<,<,-:-#X",
".#-<,<<<,<<,<,-----<<-,,<,-<<---,,,:-,,<,,----,---------<<,,:-#X",
"X#=,<<<-,<<-,,-,----<-,<<<<<<<,,,,,,,-,,<,---,,----,,,<<,,,,<-%X",
"X%=,<<<-,,-<-,-,----,-,-,,----,,-,,,,---,,,,,,-,,--,<-<<,:,<<-$X",
".#=--<<<<--<,,----<--,-,,,----,,-,,<<,,--,<,--,,<<<,----,,,<,:#X",
"o#-,<<<<----,--,--,<-,-,,,,-,--,-<,<<<,-,,,,,---<<,,----,,,,,-%o",
"o#-,,,<<--,<,--,,-,,---<<<,,,,---,-<,,,-,<<,,,--:::--;-<<<<<<-&X",
"o#>,,,<,<<,----,,-----,--,,,,,,,,<,<<,,,,,,,<,,,:::-=--:,:::,:#X",
"o#=,<,,,<<-,,-------<<---<,-,,,,,,,<,,,,<,,<,,,,::::---:,::,,-&X",
"o$--,,,<<<-,,-,,-,,<<<---,--,,,,-,,,,,,,<<,,---,::<:<:-<<::<,-&X",
"o$>,-,<<<<<,,-,,<,,,,,,-,,,,,-,-,,,,,,---<,-----::,,,,:<,::,<,$X",
"o+><,,<,,<<<<,<<,,--,--,,,<,-,--,<,,,-,,--,--,,-:,::,,:<<::<<,&X",
"o+>,,,<,,,<-<<<<<,,,,,,,,,,--,--,<,-,-<<,-,--,,<::<,:,,,,,:,<,&X",
"o+>--,,-,<--,<<,,,-,<<<,,,----<<<-,--,<,,,,-----:;::,-,,,<<:::&X",
"o+%-,,-->,,-,,,,,,<,,,,<,,-,,,,,,--,,,<,,-,-----:::;,,:,,<,,:;#o",
"O$-<<,----,,>,<,,,<,-,,,,-,--<,,,,->,,,,,,-,,,,,:::-::,,<,:>,;$o",
"o+;,,,,>---,,,<,,<,,,,,,,<<----<,,,,,,,,,-,,,,,,,,<::,,,<,::,;$X",
"o+;,,,,,----,,<<,,,,,,-,,<-,<---<,,,,,,,,,,,,--,,::::,,,,,::,:&o",
"o$>,,,-,,,,,-,<<<<,,,,-----<<,-<,,,,,,-,,,<,,,,,:::<<<<,>,,>,;&o",
"o+><,,-,,,,---,,<<,,,,,---,<-<-<,,,,,,,--,,-----:::<<:<,,<,,<,&o",
"oO;,,,-,,---,,,,,,,-,,,,-,,,<<<<,,,<,--,--,,,,,,,,,,::,,,,<,,,&o",
"o+;-,,,,<,,--<<,,--,,,,,,,,-----,,,,-,,,,,,,<,,,::,:,,,,,,,,<>#o",
"o+>,,----,,,,,,,--,<,,,,,,,,,,,-----,-,--,,,,,,,-,,:-,-,<,<<<;$o",
"o+>-,,->,,,,,,,>,--,,,->--,,,,--=----,>-=,,,,,,-,,,:-:--<<<<,;$o",
"o+>,,<,,,,,,,,,,,--,,,,,<,-,,,---,,,,,,=-,,,,<<,,,,-==:,<,<<<;$o",
"o+><<<<<,,,,,,<,,,,,,,,,-,,,,,,,,,,,,,,->,,,,,,,<,,;:,::<<<<,>$o",
"oo>,<,<,,,,,,,<,,,,,,,---,,--,,,,,,,,,,=,,,,,,,,,,,,,,,,,,<,,;Oo",
"oO*,>-,>;;->>,>>=->>>>,=>>>>>>>>,,>,>>>=>>>>,,,,,,;;==>;;:;;>;+o",
".O++$#O++++++$&+++$+++++++++++++&+#$#+#+++#+++$+$++$O++++$$+++O.",
".OoOOOOoOOOoOOOOOOOOOO+O++oOoOOOOOo+oOoOOOOOOOoOOoOOOOoOOOoOOOO "
};
