/* XPM */
static char *exit[] = {
/* columns rows colors chars-per-pixel */
"64 64 109 2 ",
"   c #4B2E1A",
".  c #502F1B",
"X  c #4E301D",
"o  c #53321D",
"O  c #5C341D",
"+  c #61371D",
"@  c #68371E",
"#  c #663B1F",
"$  c #6B3A1F",
"%  c #723A1F",
"&  c #7C3D1F",
"*  c #553521",
"=  c #5C3520",
"-  c #563A24",
";  c #5C3E25",
":  c #613621",
">  c #663C20",
",  c #693E21",
"<  c #753D21",
"1  c #7C3E20",
"2  c #5E4027",
"3  c #5F4128",
"4  c #664123",
"5  c #6A4124",
"6  c #634328",
"7  c #6A472A",
"8  c #6A492B",
"9  c #774020",
"0  c #7D4121",
"q  c #714D2C",
"w  c #714F31",
"e  c #745232",
"r  c #785635",
"t  c #7D5B39",
"y  c #823F21",
"u  c #844122",
"i  c #8C4422",
"p  c #8D4822",
"a  c #934523",
"s  c #994722",
"d  c #934A23",
"f  c #9A4B25",
"g  c #9D5025",
"h  c #825F3C",
"j  c #A44E26",
"k  c #A84F27",
"l  c #A04D28",
"z  c #A65027",
"x  c #AB5227",
"c  c #AC5328",
"v  c #AE5828",
"b  c #B15627",
"n  c #B45827",
"m  c #BA5B27",
"M  c #B35629",
"N  c #B85728",
"B  c #B6582A",
"V  c #BB5B2A",
"C  c #83613E",
"Z  c #8C633C",
"A  c #90683F",
"S  c #BF602A",
"D  c #C35E29",
"F  c #C66029",
"G  c #CC6429",
"H  c #D1672A",
"J  c #D3682B",
"K  c #836340",
"L  c #966D45",
"P  c #9E7246",
"I  c #967048",
"U  c #9F754C",
"Y  c #A0764C",
"T  c #A37B4E",
"R  c #A37D53",
"E  c #A87E51",
"W  c #AB8355",
"Q  c #A88258",
"!  c #B28757",
"~  c #B38856",
"^  c #B4895A",
"/  c #BA8E5A",
"(  c #BF935F",
")  c #BF9460",
"_  c #C0935F",
"`  c #C19561",
"'  c #C29865",
"]  c #C99C66",
"[  c #CDA069",
"{  c #D2A66D",
"}  c #D8A669",
"|  c #D3A86E",
" . c #DAAA6E",
".. c #D3A770",
"X. c #D3A870",
"o. c #DBAC71",
"O. c #DFB073",
"+. c #E1AE70",
"@. c #E4B275",
"#. c #EAB777",
"$. c #EEB976",
"%. c #E7B678",
"&. c #EFBB7B",
"*. c #F1BB77",
"=. c #F1BD7D",
"-. c #F3C07F",
";. c #EFBE80",
":. c #F1BF80",
">. c #F3C181",
/* pixels */
"=. .h , 5 4 # , , , , , 5 , , , , , , , , , , , , , , , , , 4 , , > , , , , , 4 , , , , , 5 , , , , , , 5 # 5 , , , , 4 , P +.-.",
"@.Z 5 5 > 5 , , , , 5 , > , , , , , , , , , , 5 , , > , , > , , , , , 4 , , , , , , , , , , , , , , 4 , # 5 , , , , 4 4 4 4 A #.",
"Z 7 4 7 ^ _ ` ` ( ( ) ' ( / ( ( ` ` ) ) ( ( ( _ ( ( ( ( / ( ( ( ( ( ( ( ' _ _ _ ' _ ` ' ( ( ( ( _ _ ( ( ' ' ) ) ( ( ' W 4 4 q A ",
"# 4 8 Z @.=.>.>.>.>.>.>.-.-.-.-.>.>.>.&.-.>.>.>.-.-.-.-.-.-.-.-.-.-.-.-.-.-.-.-.-.-.>.>.-.-.-.$.-.-.-.-.>.>.>.>.-.-.>.O.Z q , # ",
"# 4 U &.&.&.:.>.>.>.>.>.-.-.-.-.&.>.>.;.&.-.-.&.#.$.-.$.$.$.$.-.-.-.-.-.-.-.-.$.=.=.>.>.>.&.&.&.-.-.>.>.-.%.&.&.&.&.-.>.&.L O 4 ",
"# # Y >.-.>.;.;.>.>.>.>.-.-.-.&.>.>.>.;.-.-.&.-.-.$.#.-.-.&.$.-.#.$.$.$.-.-.-.$.*.=.-.=.-.-.-.&.-.-.-.-.-.>.&.&.&.&.&.&.-.L 4 , ",
"# # U >.>.>.&.&.&.&.-.%.&.-.-.-.&.-.-.-.&.-.=.$.$.$.-.-.-.-.$.-.-.#.-.-.$.$.$.$.=.=.&.-.>.>.-.-.-.-.&.>.&.&.&.&.&.&.-.-.-.A # # ",
"# # Y >.>.>.>.>.&.&.&.&.-.&.&.%.-.>.&.&.&.&.-.*.-.~ t C t C t C t t t C C t t / -.>.>.>.&.&.&.-.-.-.-.>.>.>.>.&.&.>.>.>.>.L # # ",
"> > Y :.:.:.:.:.>.;.&.=.=.&.&.=.-.-.-.=.-.#.( ! ! e       X   X         X X   w R Q Q  .*.$.$.*.$.=.=.=.:.:.=.:.>.&.=.:.:.L > > ",
"> @ Y :.:.:.:.&.;.&.&.:.=.=.&.=.=.-.$.O.O._ o X     , g g l g f g g g g g d i 0 +     W @.O.#.$.*.&.=.=.=.=.&.=.>.&.&.:.;.L > > ",
"> @ Y :.:.:.&.=.&.=.:.&.=.&.=.=.=.$.O.r 2 - o # , % g J J J J J J J J J H F D m g 9 $ O 8 6 ! -.=.&.=.=.:.=.=.&.>.&.&.*.&.L @ > ",
"> > Y :.:.:.=.:.;.;.>.>.$.$.=.=.-.] r o o o 9 n m G J J J J J J J J J J J H J H H H F $ o X 7 W =.:.=.&.:.:.:.:.;.&.=.&.>.L > > ",
"> > U =.>.>.>.;.&.;.>.&.=.*.=.#.( C   9 v B S G G J J J J J J J J J H H J J H H J J H S u X X e ` #.-.=.=.:.:.=.&.&.=.&.;.I > > ",
"> @ Y =.>.>.:.:.=.&.>.>.=.=.*.{ - X X g J H H H J H J F D D D D S S S S S F H H J J J G v 0 o X o ' =.>.=.=.=.=.:.>.:.=.&.L > > ",
"> > Y =.:.=.=.:.>.&.-.>.-.$.-.[ - o 5 v J J H H H G V i : : = = O O O O o u F F G J J H G v 9 = X ! &.-.:.=.=.&.:.:.;.:.&.L > # ",
"> @ U >.:.=.&.:.>.&.$.&.&.=.[ 8 o # S G H J J H G u O O o : < < , , $ $ o + # $ g J J J H G V u o 6 T -.=.=.=.*.&.=.&.>.>.L # > ",
"> # Y >.=.*.$.=.>.>.&.&.&.-.W   5 n H H H H G x l < : : < y y l j y y y : : , : 1 v G H J G G n 9   C -.-.-.&.&.=.&.*.=.;.L > > ",
"> # Y >.=.&.&.=.%.-.>.&.$. .I X 0 G H H G F z O : y a y 1 k k k k k M l < y y a $ @ v F H J J G z X r [ #.-.=.-.-.=.=.=.;.L > > ",
"# # Y >.*.&.=.=.-.>.>.-.#.Z X o p H H H G n O o y y l y 1 c B M N N N c y y f a y % O l G G J H m + o ; { -.$.-.-.&.&.=.>.L # # ",
"# # Y >.=.=.=.:.>.-.-.#.$.t   0 F H G G z 9 O # y f c a 1 c M M N N M M y s c s a i & i b G G H G n + - [ -.&.&.=.=.=.=.;.L , # ",
"> > Y :.:.:.:.=.-.-.%.-.-.t   p G H H G 0 * , y a j M s 1 c M B N N M M y a M k f s a < u F G J H m # O | -.-.&.&.;.=.:.&.L > > ",
": > Y =.:.:.=.=.>.>.-.%.-.t   p D H H D 0 * 1 a f x M f 1 c B M M M M c y i M B M c s @ @ V G J H m $ - { -.$.&.=.=.=.=.&.I @ > ",
"$ $ U =.=.:.:.:.-.>.-.-.%.K   p G J D s , 1 a l c M M f 1 c M M M M N c 1 a M M B N M i % 0 n H H m + - | $.-.-.>.:.=.>.&.L > > ",
"> > U =.&.:.:.=.%.-.-.%.-.K   p D J D : = y f M M M M s 1 c B M M M M M y s B N B B B f <   g J H m + - | -.$.-.=.=.;.&.>.I > # ",
"@ > U &.$.&.:.:.&.:.:.=.&.K   p D J D + O y k M M M M a 1 k M B M B M M y a B B M V M j 1 X g H J n @ - { =.*.=.=.&.=.:.:.L > > ",
"> @ U >.:.;.&.:.:.:.:.=.&.K   u D J N O O a k N M M M s 1 c M B B B M M 1 a B B M V V c y . f J G m + * { =.:.:.:.=.=.=.=.L @ > ",
"> > Y >.:.:.:.:.:.:.:.>.>.K   i D H n O O y k n c M M f 1 c M M B M M c y a B B M V V B i   g J H n + ; { =.=.:.=.=.=.&.&.L > > ",
"> > Y >.:.:.:.:.:.:.:.:.&.K   p D H n O O i x N M M M f 1 c M M B M M M y a B V V V V V d X f G H n + ; { =.=.*.=.=.*.=.;.L @ > ",
"> > U >.&.>.:.&.:.:.$.$.&.K   i G H b O O i k N M M M f 1 c M M M M B c 1 d B V m V V V d . d H H n + - X.:.=.=.=.=.&.=.;.L > > ",
"@ > U >.:.:.:.=.:.;.&.=.;.K   i D H b O + i j n M M M f 1 c M M M M B c y d B B B V V V d o d H G n + - ..=.=.:.:.:.:.:.>.L > > ",
"> # U =.&.&.:.:.=.:.;.:.&.K   i G H n O O i k N M M M f 1 j M M B B B c 1 d V B B B m n p X d J G n + - { =.:.:.=.=.;.;.;.L > > ",
"> > U =.&.&.:.&.$.$.=.:.;.K   i D H b O + i k N M M B f 1 j M M B B B c 1 a M y < 9 0 g p . d H G m + - ..:.:.=.:.:.:.;.&.L > > ",
"> > Y =.&.;.>.>.O.-.%.-.-.K   p G H b O : a x M M M M f 1 c M c M B B c 1 y l * X X . y y * f G G B > - X.=.=.*.=.:.=.:.=.L , @ ",
"> > Y :.&.&.;.>.-.-.>.-.-.t   u D G b O : y x M M M M f 1 k M M M M M c 1 ; * * : @ X = = . a G G M = - X.>.:.=.=.:.=.:.:.L @ > ",
"@ > Y >.&.=.&.&.-.>.-.-.-.t X p D H n O O a x M M M M f 1 k M M B B M c 1 : X X % < . X   X a G G n + - ..>.=.:.:.:.=.=.=.L > > ",
"> # Y :.&.&.&.&.-.-.-.-.-.K X u D H M + : y x M M M M f 1 c M M B M B c y : = X * . * * =   a G G n + - X.>.=.=.=.:.:.:.>.I # # ",
"# # Y >.&.&.&.>.-.O.>.-.-.t   p D H n + = a x B M M M f 1 x M M B M B c 1 1 y = X X * y < X a G H n + - X.-.=.=.=.:.:.=.&.I # # ",
"# > Y >.-.%.&.&.-.-.>.-.-.K   u D H b O = i j M M M M f 1 x M M M M M c 1 y y * X X * y 1 X d G J n + - { =.=.*.=.&.:.*.&.I # # ",
"# # U =.-.-.>.>.>.-.%.>.-.t X u D H b O = a k M M M B f 1 x M M B B M c y y y y < , < i < X a G J n + - { =.&.=.&.&.=.*.-.L # , ",
"> # U -.>.>.%.%.>.>.>.>.-.t X p D G b O = i k M M c M f 1 j M M M M M M y y y y a a a a < X s F G b + - { -.=.&.=.=.&.&.&.L # # ",
"# # Y >.:.=.:.=.>.>.>.>.&.K   u D H b O O i k n M M M f 1 k M c M M M c y y y y y y l y < . a F G b O - { :.:.=.=.:.=.&.&.L : , ",
"# # U &.&.:.:.:.&.-.>.=.&.K   p D H b O O a k M M M M s 1 c M M M M M c y y l l k k j j 1 . a G G n + * { =.=.=.=.:.=.=.&.L , $ ",
"# # Y >.;.&.:.:.&.&.&.-.;.K   u D G b + O a j M M M M f 1 j M M M M M c y y M c k c M l < . y G G n + - { =.=.*.&.=.:.:.>.L @ @ ",
"# # Y >.:.:.:.=.>.&.&.&.-.K   i D H b O O i k M M M M f 1 x M M M c M c y y M M N M M j 1 o l G G n @ - { :.=.=.&.&.=.=.&.L > > ",
"> > Y :.:.:.:.&.&.&.#.&.>.K   i D G b O O s k N M M M f y k M M M M M c y y M M N D M j % . y J G b + - { =.=.=.=.&.&.;.>.L > + ",
"> > Y :.:.:.:.:.>.;.&.#.-.t X i D G x O o y x N M M M s & k M M M M B c y y B B M M M j % . y F F n O - { >.=.=.>.:.>.>.>.L > > ",
"> > U :.:.:.;.:.>.-.&.-.&.K   i D G M O O a x M N M M f & k b c M M B M y y V B M M M j y . y F G b + - { >.=.:.>.>.>.>.>.L # # ",
"> > U :.=.:.&.:.>.&.&.>.>.t   i D G k O + y k M M M M s 1 x M M M M M c y f B B M M M j % o l F G n + - { >.=.&.=.&.&.>.>.I # # ",
"> @ U :.:.=.=.:.:.$.&.=.=.h   i V G x O O a k M M M M s y k M M N M M M y s M N V M M j & X p F G b O - X.>.>.=.=.&.&.=.>.L > > ",
"> > Y :.:.=.&.=.&.&.=.:.=.h   u D G x O O i k M M M N f 1 k M b M c M c y y c M M M m j % o d F F x + - | >.>.>.-.=.&.=.;.I > > ",
"> > U :.=.=.=.=.&.:.&.=.;.C   i D F j O + a k N M M N f y k b M M M M k 1 y N M M M M j & X a D F b + - | >.-.-.>.>.:.:.;.L > > ",
"> > Y :.:.:.&.=.:.&.=.=.;.C   i n V j O + i j c M k M s 1 j k b c k M k y y c N c c M f & o i n m x O - | -.&.-.&.=.=.:.&.L > , ",
"> > U :.=.:.=.:.>.=.=.=.>.C   9 s s i O O i a a a y a i < i a a y j s a , < y j a s s a < o 1 s s p O - | *.$.=.=.=.=.:.:.L > > ",
"> > U ;.=.&.&.=.>.=.=.=.o.r   , i i y o O y y u y y u 1 < y y i y y y y + , y y y i u i < o 1 i i u o o ) $.=.&.=.=.=.&.&.I > > ",
"@ > U ;.:.:.=.=.>.>.-. .7 X X * * o . *   o * o + o O o . * * * * * O . o o o o o * o o o X o o o o o X - / -.-.=.=.=.=.&.L > > ",
"> > U >.:.:.=.*.=.=.>.{ 6 ; ; ; 2 > ; ; ; 6 3 : : ; 2 ; ; 2 ; ; ; ; : > 6 ; 2 ; ; 2 > : ; ; 2 ; ; ; ; ; - ~ -.&.=.:.:.;.;.L > > ",
"> > U >.&.&.=.=.=.=.-.&. .} } }  . . . . .o.+.+. .o.o.o.o.o. .o. . . .o.o.o.o.o.o.o.o.o. . .o.o.X. . . .o.#.*.=.:.:.:.:.:.L > > ",
"> > U >.=.=.=.=.*.=.&.*.*.$.$.=.=.*.*.*.=.:.:.=.=.*.&.*.=.&.&.&.*.=.*.&.=.=.=.=.:.=.=.=.=.&.=.=.>.-.-.=.>.:.&.*.:.:.=.=.:.L > > ",
"> > U >.>.=.=.=.=.=.&.=.&.$.$.-.=.=.&.&.:.:.=.=.&.=.=.:.&.&.:.:.=.:.=.&.&.*.*.=.=.=.=.=.&.=.=.=.-.=.=.=.>.>.=.=.=.=.$.=.;.I > > ",
"> > U &.=.=.=.-.&.=.=.=.:.-.=.=.=.=.=.=.:.:.=.=.&.=.:.:.:.=.:.>.=.=.=.=.=.=.=.=.*.&.&.*.=.:.=.&.=.=.=.=.=.=.>.>.:.&.&.=.&.I > > ",
"; 4 q L %.=.=.-.-.=.=.=.-.-.>.>.:.:.:.:.>.>.:.:.:.:.:.:.>.>.>.>.>.>.:.:.:.:.:.:.:.=.=.>.>.>.>.>.=.-.-.=.=.>.>.>.>.=.:.o.K q 4 > ",
"Z 7 4 7 W ^ ~ ^ ^ ^ ^ ^ ^ ^ ^ ^ ^ ^ ^ ^ / ^ ^ ^ ^ ^ ^ ^ ^ ^ ^ ^ / ^ ^ ^ ^ ^ ^ ^ ^ ^ ^ ^ ^ ^ ^ ^ ^ ^ ^ ^ ^ ^ ^ ^ ^ ^ ^ R 7 > q Z ",
"@.C 4 , # , # # # # # , , # # > > > , , , , , > > , , , , , , , , > , , , , , , , > , > > , , $ , # # # , > > > , > 4 4 4 7 P &.",
"&. .L 4 5 5 5 5 5 5 , 5 5 , 5 5 7 , , , , , , , , , < , , , , , , , , , , , , , , 5 , , , 5 5 5 , , 5 5 5 5 5 5 5 5 5 5 4 E @.;."
};
