/* XPM */
static char *hera_small[] = {
/* columns rows colors chars-per-pixel */
"64 64 225 2 ",
"   c #4B2D1A",
".  c #512F1A",
"X  c #53321C",
"o  c #5C351D",
"O  c #5F381E",
"+  c #4E301C",
"@  c #62361D",
"#  c #64391E",
"$  c #6A3B1C",
"%  c #6B361E",
"&  c #763D1D",
"*  c #563621",
"=  c #5B3720",
"-  c #5C3A23",
";  c #5E3E29",
":  c #573822",
">  c #643620",
",  c #653D21",
"<  c #6A3D24",
"1  c #603F2A",
"2  c #693F29",
"3  c #743E24",
"4  c #6E411C",
"5  c #73421C",
"6  c #7C431A",
"7  c #7F481A",
"8  c #5F4129",
"9  c #644126",
"0  c #6C4326",
"q  c #62422B",
"w  c #6C4629",
"e  c #6D4A2D",
"r  c #714627",
"t  c #7D4026",
"y  c #704628",
"u  c #7E432B",
"i  c #734B2C",
"p  c #7A4D2C",
"a  c #7B4C25",
"s  c #7E532E",
"d  c #76502E",
"f  c #654431",
"g  c #6C4D31",
"h  c #674B31",
"j  c #724F32",
"k  c #6D5035",
"l  c #755334",
"z  c #7B5533",
"x  c #7E5936",
"c  c #7D5A39",
"v  c #745539",
"b  c #7F6141",
"n  c #82451B",
"m  c #864A19",
"M  c #974C1D",
"N  c #995518",
"B  c #A5581A",
"V  c #B65D1F",
"C  c #B56417",
"Z  c #AF6418",
"A  c #844124",
"S  c #8D4326",
"D  c #82432A",
"F  c #8B462B",
"G  c #8C4926",
"H  c #914426",
"J  c #9B4924",
"K  c #8A4931",
"L  c #825632",
"P  c #855E39",
"I  c #855B35",
"U  c #80542F",
"Y  c #A34A25",
"T  c #A94D26",
"R  c #AA5622",
"E  c #B55329",
"W  c #B95428",
"Q  c #BA5724",
"!  c #AE5932",
"~  c #85613C",
"^  c #8B623C",
"/  c #8D6134",
"(  c #91663D",
")  c #946A3F",
"_  c #9F6026",
"`  c #AF6837",
"'  c #C7681A",
"]  c #D26D1B",
"[  c #D96B1E",
"{  c #CA7117",
"}  c #D77519",
"|  c #E2731D",
" . c #EC7D19",
".. c #E77819",
"X. c #F07D1B",
"o. c #C35C24",
"O. c #C85D25",
"+. c #CC6323",
"@. c #C66120",
"#. c #D36623",
"$. c #D46921",
"%. c #DA6C20",
"&. c #DD7322",
"*. c #C67734",
"=. c #E77722",
"-. c #8C6E4C",
";. c #8B6743",
":. c #946941",
">. c #996E43",
",. c #926B44",
"<. c #9D7146",
"1. c #9E7348",
"2. c #96744E",
"3. c #987A54",
"4. c #A17546",
"5. c #A17649",
"6. c #A57A4B",
"7. c #AB7D4B",
"8. c #A47847",
"9. c #A47F54",
"0. c #A97F50",
"q. c #CC7D40",
"w. c #EA8216",
"e. c #F38616",
"r. c #F58A14",
"t. c #FC8D13",
"y. c #F28419",
"u. c #F88A1B",
"i. c #FF9013",
"p. c #FD921A",
"a. c #E98A2E",
"s. c #F38B26",
"d. c #FA9627",
"f. c #F49635",
"g. c #E58D39",
"h. c #F9A136",
"j. c #D98628",
"k. c #9F815A",
"l. c #AE814E",
"z. c #B2834E",
"x. c #BE894B",
"c. c #AC8254",
"v. c #A5845B",
"b. c #B38552",
"n. c #BD8C55",
"m. c #B48C5B",
"M. c #BA8D5A",
"N. c #B68955",
"B. c #BE915E",
"V. c #A98B61",
"C. c #B89767",
"Z. c #AE8F63",
"A. c #BFA374",
"S. c #C08F56",
"D. c #CB995D",
"F. c #C5935A",
"G. c #D39E5D",
"H. c #DB9857",
"J. c #DBA35F",
"K. c #F8A84A",
"L. c #E7A757",
"P. c #F9B35A",
"I. c #C49964",
"U. c #C69B65",
"Y. c #D29E60",
"T. c #CBA069",
"R. c #D6A364",
"E. c #DAA564",
"W. c #DFA966",
"Q. c #D4A56B",
"!. c #DDAA6C",
"~. c #DBA76A",
"^. c #C8A977",
"/. c #DBAC71",
"(. c #D3AE74",
"). c #CEB07D",
"_. c #DDB074",
"`. c #D9B67C",
"'. c #E4AC66",
"]. c #E4AE6A",
"[. c #E9AF66",
"{. c #EBB167",
"}. c #E6B06C",
"|. c #EDB56C",
" X c #F0B76E",
".X c #F1B96F",
"XX c #F6B967",
"oX c #E1AF72",
"OX c #E2B174",
"+X c #EEB771",
"@X c #EFB974",
"#X c #EEBC7B",
"$X c #E5B87A",
"%X c #F0B770",
"&X c #F1BA74",
"*X c #F1BD7C",
"=X c #E1984C",
"-X c #ECC07F",
";X c #F3C17F",
":X c #FAC678",
">X c #F9C16F",
",X c #D9BB85",
"<X c #EBBD80",
"1X c #F2BF80",
"2X c #DEC189",
"3X c #EBCB8E",
"4X c #E5C48A",
"5X c #F3C181",
"6X c #F9C681",
"7X c #FCCB85",
"8X c #FCCE89",
"9X c #F3CA89",
"0X c #FDD28C",
"qX c #FAD189",
"wX c #EACC91",
"eX c #EED095",
"rX c #F3D395",
"tX c #FDD692",
"yX c #FED995",
"uX c #F4D698",
"iX c #FDDD9C",
"pX c #F6D89A",
"aX c #FFE09F",
"sX c #FDDFA0",
"dX c #FFE2A1",
/* pixels */
"*X!.6.w > # # # # # > > > # # # > > # > > # > > # # # @ @ > # @ @ # > > > > # # > # # # # # > > # # # # # # # # # # @ @ e b.oX*X",
"/.N.~ 0 2 r r r 0 r w y y y 0 r w y y r r y w r y r r w 2 y r w r r r r r w r r w w y y w r w r r r r w r r w r w r r 2 w ;.C.oX",
"c.^ w w P >.<.<.<.<.<.1.<.1.1.<.<.<.<.<.>.1.<.1.>.1.>.>.<.<.<.<.<.<.<.<.<.5.<.>.<.<.<.<.>.5.<.1.<.1.>.<.1.<.>.>.>.<.<.P w e ( b.",
"l w w P C./.OXOXoXOXOXOXoXOXOXOXOXoXOXoXOXOXOXOXoXOXoXOXoXOXOXoXoXOXoXOXOXOXoXoXOXOXoXoXOXOXOXOXOXOXOXOXOXOXOXoXoXoX/.M.c e y p ",
"0 0 ~ M._.#X1X1X1X1X1X1X1X*X1X1X1X1X1X1X1X1X<X1X1X1X1X1X*X<X1X1X1X1X1X1X1X1X<X1X1X#X1X1X5X5X5X*X1X1X*X1X1X1X#X#X#X*X#X/.b.x 9 < ",
"# 0 ,./.#X;X1X1X1X1X1X*X1X1X1X1X1X1X1X1X1X1X*X1X*X1X*X*X*X1X1X1X1X1X*X1X1X1X1X1X5X1X1X1X;X5X;X;X*X1X5X1X1X1X*X*X#X*X*X#XQ.:.9 # ",
"4 y <.OX*X1X1X1X1X1X*X*X*X*X1X*X*X1X1X1X1X*X*X*X*X*X*X*X*X1X1X1X1X*X*X*X1X1X*X*X*X5X5X*X#X*X;X#X*X*X1X*X*X*X*X*X*X1X1X*X!.) < # ",
", w <.OX*X5X1X1X1X#X#X*X*X*X*X*X*X*X1X*X*X*X*X1X1X1X1X1X1X1X*X*X1X&X*X*X1X*X*X*X#X#X*X*X&X@X&X#X*X&X*X*X&X*X*X*X*X1X1X*X/.) 2 > ",
"> y <.oX*X*X*X1X1X1X#XoX!.oXoXoXoXOX*X*X*X*X1X1X1X1X1X5X1X5X;X*X*X*X1X*X*X*X*X*X*X*X*X*X&X@X@X}.!.].!.~.'.}.+X&X&X*X*X&X/.:.< > ",
"< y <.OX*X*X*X&X*X#X/.N.6.6.6.6.c.F.}.*X*X1X1X1X1X1X1X5X1X1X#X*X*X*X*X*X*X*X*X*X&X*X*X&X&X|.R.z.8.6.8.5.7.D.[. X@X&X*X#X/.:.< > ",
"> y <.oX*X*X*X*X*XoXN.i > > > - 9 P D.+X*X1X*X#X*X*X*X1X1X#X#X#X*X*X*X#X*X*X*X&X*X*X&X&X%XW.8.i = < , , r ) D.}.@X&X*X#X/.:.< > ",
", y <.oX@X*X*X*XoXM.L < > < < > - q ^ D.&X&X+X&X*X*X*X*X*X*X*X*X*X*X*X&X&X&X*X*X.X.X&X&XW.7.i o $ M N N G u ) D.@X&X&X*X!.:.< > ",
", r <.OX*X*X*X%XoX6.> < 3 D u u < > 9 <.Y. X%X&X*X*X&X&X&X&X&X*X*X*X*X&X&X&X*X&X.X.X%X~.7.L O 5 B { } { V 6 L N.&X&X*X#X/.:., # ",
"# r <.OX*X*X*X%X~.5.* < u K K K A % - y 4.Y.|.&X*X&X&X&X&X&X&X&X*X&X&X&X&X&X%X%X%X%X].7.L < 5 Z } r.t.t.] n s b.|.*X*X#X/.:.< # ",
"$ 0 >.OX*X*X*X@XY.5.- 2 3 K K K A 3 > - u <.Y.+X&X&X%X%X&X&X&X@X%X%X%X&X&X.X.X X.XJ.7.p $ 6 Z } t.t.t.t.] m s b.@X*X5X5X/.:.< > ",
"$ w <.OX*X*X&X%X].6.- 2 D K F F F A 2 > - y 4.G. X&X&X&X&X&X&X>X*X&X&X&X&X&X.X%XY.7.D < m Z } t.t.r.X.X.] m s b.&X&X*X#X/.:.0 > ",
", r <.OX#X&X&X&XoX1.> < 3 K F S S S 3 < = * u 1.D.R.R.R.E.R.J.R.R.E.E.E.E.R.R.G.4.s $ m C ..t.u.y...%.=.] 6 U b.&X&X*X#X/.:.9 < ",
", y <.OX*X&X&X*X~.5.- < D K F D D S D 3 > + . f ^ <.<.<.<.<.<.<.<.<.1.1.<.<.>.) r $ m ' w.t.u. .[ O.O.$.' n s z.&X*X*X#X/.:.2 # ",
"# y <.OX*X*X*X&XY.6.= < D F S S S H S 3 ; * * * O - , 9 4 , 9 0 9 0 2 # - , < $ # 5 C w.r.y.=.#.o.W W #.' n z b.*X*X*X*X/.:.< # ",
"0 y <._.*X*X*X&X].5.- < D F H S S D D 3 ; - = X X X & n & 7 A A & & % @ X X % < @ 7 { e.y.=.+.W W E E #.' n U b.&X*X*X*X/.) 0 # ",
"$ r <.OX&X*X&X&XE.5.- < D K H S S D u 2 ; ; ; : * o M Q E o.O.W Y H A A 3 5 M H m B } w...+.W E E E W #.' 6 s b.+X*X1X#X!.:.< # ",
"$ r <./.*X*X*X&X~.5.= < D F H H S F 3 2 ; ; ; - - # B #.+.| | O.T Y J J J C ] ] ] } r.w.$.W E E E E W #.{ n s 7.+X*X*X1X/.:., O ",
"$ r <.OX*X*X&X.XE.<.* < u F H H S u 2 1 1 1 ; ; - > T [ [ X...#.T Y Y Y R $.y.e.r.t.i.y.[ o.W E E E E #.' n s z.|.#X*X#X!.) 0 @ ",
"# y <.OX@X&X&X.X~.5.* < D F S H F 3 1 f f 1 1 ; - # B | X.X...[ T Y Y Y E } t.t.t.i.t.r...[ O.W E E E #.' n s z.|.*X#X#X/.) 0 # ",
"# r <.OX@X&X@X|.E.4.= , u K S S 3 2 f f f f f ; - # R g.f.s.u.[ E Y Y Y E [ e.t.t.t.t.t.t.e.[ O.W E W #.' 6 p l.|.*X1X1X/.,.0 # ",
"9 r <.OX*X&X@X|.E.4.- * < D S D 3 1 f f f f f ; = , _ g.s.s.s.a.*.! Y Y Q | t.t.t.t.t.t.t.r. .[ W W W O.Q 5 d 7.OX#X5X5X_.:.9 > ",
"# r <.OX*X&X@X%X].S.P 1 > t S 3 1 1 f f f f q - - , 5.=Xs.u.f.L.H.8.E o.[  .t.t.t.t.t.t.t.t.r...&.#.Q T M p >.D.+X&X5X1X/.:.2 % ",
"4 r <._.@X.X@X&X%X~.b.e o 3 3 < ; 1 2 f f f ; - o 9 6.'.f.u.f.P.{.q.O.| X.e.r.t.t.t.t.t.t.t.t.t.e. .@.M 4 P F.{..X*X*X*X!.( 0 # ",
"$ r <._.&X&X&X&X&X].n.e . = - 1 1 1 q q ; ; ; - o 9 c.+XP.f.s.K.P.g...e.t.t.t.t.t.t.t.t.t.t.t.t.t.r...N 5 ( G..X%X*X*X#X/.:.< # ",
"# y <.OX#X&X|.@X&XOXn.y . * : ; 1 1 8 8 8 q ; = o 9 c.@X>XP.P.XX>Xh.r.i.t.t.t.t.t.i.t.t.t.t.t.t.t.t.w.B 5 ( Y.&X X&X*X*X/.:.< # ",
"# r 1.OX*X*X@X%X&X].S.g + : ; 1 f q ; ; q ; = = , ~ U.;X:XqXqXqX:XP.d.i.i.t.t.t.i.i.t.t.t.t.t.t.t.t. .B r ( G..X X&X*X*X/.:.< # ",
"# r 1.OX*X&X&X%X.X[.n.e + : ; 1 1 ; - ; ; o * - z I.5X8X0XiXaXiXyX:XK.i.i.t.t.i.i.t.t.t.t.t.t.t.t.r...B 5 ) G.&X|.%X*X*X/.:.9 # ",
"$ r <.OX*X*X&X%X.X].n.q + : - 8 - O o # $ # X e 9.#X0XtXtXiXdXdXaXqXP.d.i.i.i.i.i.i.i.i.i.i.t.t.t.r.} N r ( G..X|.&X*X;XoX:.0 # ",
"$ 0 <.OX#X&X.X%X|.D.<.8   + X X X X X O @ # X z I.9XyXiXiXiXdXdXaXyX:XK.d.i.i.i.w.j.{ { w.i.i.i.t.r.| B A U z.W.|.&X*X*X/.) 2 # ",
"# r <.OX*X&X&X%XW.z.d o X : O - - O # # O o X l C.3XiXiXdXaXdXdXaXaXyX:XK.d.i.r.C N 7 N { r.i.i.t.r.| Q H t ) D..X&X*X#X!.) < # ",
"9 r <.OX*X*X&X.XW.6.O 9 l b ~ ~ ~ ~ ^ a o . + w 2.,XiXdXaXdXdXdXaXaXaXaX:XP.h.j.N 4 X 4 N { i.i.t.X...#.Y % L N.+X&X&X*X/.) 0 # ",
"4 r 1.OX;X;X&X;X}.l.8 ~ F._._.(._._._.c.w X . X v ^.pXdXdXdXdXdXdXdXdXdXaX0X>Xx.a +   + 7 C r.i.t.t.t. .' & I n.&X&X&X@X~.:.< @ ",
"# w <.OX@X&X#X@XE.1.8 ,.T.-X-X7X0X0X0XC.d X . X e ^.uXdXdXpXeXwX3X3XrXaXaXaX3Xm.e       4 Z r.i.i.t.X.X.' & s z.'.|.&X@X/.:.9 # ",
"# r <.OX@X;X.X].b.x o d 1.m.B.$XqX0XyXT.z X   X f ^.uXdXsXwX,XZ.Z.C.).uXaXdXrXZ.g       4 Z r.i.t.e.| ' B $ 5 ( n.].&X#X!.:.0 # ",
"9 r <._.@X.X+XY.~ X + O 9 e x C.qXyXyXC.v - X * k ^.uXsXeXA.-.8 8 8 b ).uXdXeXC.g   +   4 Z r.i.t...' M & . . 4 ) W.&X#X!.) < # ",
"# r 1.OX@X&X|.E.7.d O j ;.1.c.(.qXyXyX`.C.k.k.3.V.,XsXsX,X3.8       8 k.3XaXpX).k.8   o N } t.i.t.e...C N 4 w ^ N.}.&X%X!.:.0 # ",
"# r 1.OX@X@X|.{.J.) 9 ;.I.OX$X9XqXpXyXtX3X4X2X2X4XuXsXpX,X3.k f : 8 b V.4XaXaXeXA.-.z / *.i.i.i.i.i.e. .C 5 U z.'. X%X*X/.:.< # ",
"4 y <.OX;X@X|.{.E.5.9 ,.T.-X-X-X4X4XpXaXaXaXaXaXsXsXdXsXeX,XA.3.8 k.A.`.aXaXaXaXwX`.^.(.L.h.i.e. .w.w.w.' 6 I z.]. X&X*XoX) 0 # ",
", y <._.-X&X%XE.6.e : h ^ <.) ) ^ -.).rXaXaXaXaXdXdXdXdXsXpX2XC.k k.2XpXaXaXaXaXaXpXuXtX:XK.w.Z m N B N m @ O z z.].&X*X!.) 0 @ ",
"# r 1.OX*X&X|.R.>.e 8 - ; w z x z ;.U.3XyXyXaXaXiXiX4X,XsXdXeXC.h k.eXsXuX2X2XaXaXaXaXaX:XP.a._ 5 a a 4 O 8 9 z 7.'.&X#X/.:.0 @ ",
"# r <.OX&X&X|.W.x.) / 9 X q ;.v.v.N.`.9X0X0XyXiXiXeXC.V.,XwX,XZ.h k.`.`.).C.C.rXaXtXaXaXqX>XL.x.8.8.~ w O z ) l.S.[.&X@XoX:., O ",
"9 y >._.@X%X|.|.[.W.G.) w e 3.(.5X9X8X0X8XqXqXtXtXwXV.;.3.v.9.;.k b k.k.-.-.Z.9XqXqXtXqXqXqX:X:X-X_.8.s a 8.G.'.{.%X@X@X/.) 0 # ",
"4 e <.OX@X%X|.|..X|.{.D.) i z v.$XqX0X0X8X8X7XqX0XrX^.2.v g v ;.k.b h g b k.(.qXqXqXqXqX:X0X0X8X@XD.^ ^ l.G.{.|.|.|.@X#X/.) < # ",
", y 1._.@X&X|. X X|.%X{.F./ ; P F.9XqX7XqX7X7X7XqX0X5XU.1.,.2.v.(.m.,.-.k.Q.7X7X7X7X7X7X7X7X;X$XF.) ^ z.W.{.|.|.|..X&X#X/.:.9 # ",
"# w <.OX&X&X+X X.X.X|.|.!.n.x l 2.T._.-X7X7X7X7X8X8X6X5X;X*X#X#X9X5X-X#X-X6X7X7X8X7X7X7X:XOXD.M.>.l l.R.{.|.%X.X.X>X:X#X/.:.< # ",
"4 y <.OX*X@X|.|.|.|.|.|.|.W.S.) l z ) T.@X&X7X7X7X8X7X7X8X6X7X7X7X7X7X7XqX7X7X7X8X7X:X;X!.b.s w z 8.D.[.{.{.|..X.X&X:X#X/.:.< O ",
"O y <.OX*X&X@X|.|.|.|.|.|.|.'.n.^ w h ~ c.N./.:X6X:X6X6X6X6X6X6X7X7X7X7X7X7X7X7X8X;XQ.N.:.l 9 z 8.D.'.|.XX|.|.|.|..X*X#X/.:., @ ",
"# y <._.*X*X+X+X.X|.|.|.|.|.|.W.F.<.d w g l c.T.Q.Y.T.Q.Q.Q.Q.Q.R.Q.Q.Q.Q.T.Q.Q.Q.U.8.l 9 0 z z.E.'.{.XXXX|.|.|.|.+X*X*X/.( < > ",
"$ r <.OX*X&X%X|.%X%X|.{.{.|.|.|.[.G.b.<.x 9 g z L c c c x x c c c z c c x x c c x z w d ~ <.l.G.|.{.{.{.|.%X.X|.&X+X&X#X/.:.9 # ",
"$ y <.OX#X&X&X|..X@X@X%X|.|..X|.|.{.'.D.l.x e e g g e g e e e g e w e g g i i g e w e 1.S.H.J.'.|.|.|.|.|.%X|.%X%X@X*X#X/.:.0 $ ",
"4 w <._.*X*X&X+X@X&X&X.X.X>X.X|.{.|..X+XE.z.8.1.1.1.8.8.5.5.1.8.8.5.5.5.4.4.1.1.1.8.8.D.'. X X|.XX%X.X.X%X%X.X%X+X#X&X#X/.:.0 # ",
", y 1.OX*X&X%X&X&X&X&X&X>X>X&X%X|.%X.X.X|.'.{.{.}.{.|.%X|.}.{.|.%X{.}.{.{.{.}.}.|.}.}.|. X X|.%X%X%X%X%X&X%X%X%X&X+X&X@X!.:., # ",
"< y <.OX*X*X*X&X&X&X&X@X%X@X@X|.|.@X&X&X|.|.|.&X@X%X@X&X%X%X%X.X%X@X.X{.|.|.|.%X.X%X.X%X&X&X&X&X%X X|.+X&X*X*X*X&X&X&X@X/.:.9 # ",
", r >.oX*X*X*X*X&X&X&X@X#X&X@X&X&X&X@X@X%X&X.X&X@X;X&X&X%X%X%X|.%X@X.X|.%X&X@X.X&X&X&X*X*X&X&X&X&X%X@X&X*X*X1X*X*X*X&X#X!.:.< # ",
", 0 ( I.OX*X*X*X;X#X&X#X#X@X@X;X*X*X@X@X@X@X@X@X@X@X#X@X@X%X%X%X@X@X@X;X@X#X;X&X*X*X*X*X*X*X&X&X&X*X*X*X*X*X1X1X*X;X#X_.I.P 9 # ",
"w 0 w ^ C._.OXOXOXOXOXOXOXOXOX}.OXOX].].OXOXOXOXOXOX_.OXOXOXOXoXoXoXoX$XOXOXOXOXoXOXoXoXOXOXOXoXoXOXoXOXoXOXOXOXOXOX/.M.I y w i ",
"6.~ 0 i ;.>.1.<.1.<.<.<.1.<.<.<.<.<.:.<.1.<.<.<.1.<.<.<.<.1.<.<.<.>.5.4.<.<.5.5.5.>.5.<.>.5.<.<.1.1.<.1.1.4.5.<.5.5.,.P 0 9 ~ 0.",
"Q.b.~ 9 0 w r y y y y r y 0 0 y r r 0 0 r r r r r r r r 0 y r r y r r r r r r r r r r r r r r y r r r r y y r w y r 0 0 w P m./.",
"-XQ.6.y # # # # # # # # # # # $ $ # # # # # # # # # # # # # # < > > # # $ $ # # # # # $ $ < # # # # % $ # , # # # > # > e 0./.#X"
};
