/* XPM */
static char *pared_small[] = {
/* columns rows colors chars-per-pixel */
"64 64 110 2 ",
"   c #4A2F1B",
".  c #4E321D",
"X  c #52331D",
"o  c #5C361E",
"O  c #5E391F",
"+  c #63371E",
"@  c #64391F",
"#  c #6A3A1F",
"$  c #753C1F",
"%  c #7B3D1F",
"&  c #523621",
"*  c #563A22",
"=  c #5B3D25",
"-  c #663D21",
";  c #693E22",
":  c #753E20",
">  c #7A3E20",
",  c #5D4027",
"<  c #664124",
"1  c #694124",
"2  c #614228",
"3  c #6D4729",
"4  c #6E492B",
"5  c #754021",
"6  c #7B4221",
"7  c #714D2C",
"8  c #6D4E32",
"9  c #735335",
"0  c #7A5532",
"q  c #785738",
"w  c #833F1F",
"e  c #883F1F",
"r  c #833F20",
"t  c #86401F",
"y  c #89401F",
"u  c #854321",
"i  c #8C4321",
"p  c #864925",
"a  c #894925",
"s  c #934521",
"d  c #984621",
"f  c #964823",
"g  c #9A4923",
"h  c #9E5B2E",
"j  c #835B36",
"k  c #805E3D",
"l  c #A54D24",
"z  c #A84F25",
"x  c #A65226",
"c  c #AB5226",
"v  c #AA5628",
"b  c #A35D2F",
"n  c #B45427",
"m  c #B65629",
"M  c #B85729",
"N  c #B55B2A",
"B  c #BC5A29",
"V  c #83623F",
"C  c #8B643E",
"Z  c #BD602A",
"A  c #C25C2A",
"S  c #C4622B",
"D  c #CD632B",
"F  c #CC682D",
"G  c #D1662C",
"H  c #D46A2C",
"J  c #DB6B2C",
"K  c #E36E2D",
"L  c #8D6943",
"P  c #956E46",
"I  c #986F46",
"U  c #936F48",
"Y  c #9A7046",
"T  c #977048",
"R  c #9D724A",
"E  c #9F794D",
"W  c #A1764C",
"Q  c #A47A4E",
"!  c #A87C4F",
"~  c #A57D51",
"^  c #A97E50",
"/  c #AD8355",
"(  c #B28656",
")  c #B78A58",
"_  c #BA8F5C",
"`  c #BA915F",
"'  c #BD9360",
"]  c #C2935F",
"[  c #C39662",
"{  c #C59965",
"}  c #C99B66",
"|  c #CE9F68",
" . c #CFA169",
".. c #D4A56C",
"X. c #D7AA72",
"o. c #DEAD73",
"O. c #E0AE74",
"+. c #E3B276",
"@. c #EBB676",
"#. c #EEB877",
"$. c #E4B479",
"%. c #E9B679",
"&. c #E7B87C",
"*. c #EDBA7C",
"=. c #F2BA77",
"-. c #F1BD7D",
";. c #F4C07E",
":. c #EFBE80",
">. c #F1BF80",
",. c #F3C081",
/* pixels */
"-.%.Q 1 O @ + @ + + + + + + + + - + + + + @ @ + @ + @ @ - - + - + + - - o + - o + + + + # + + + @ @ @ @ - + + + + - - + ; _ *.-.",
"%._ j 1 < 1 < < < < < < < ; # ; < < < - 1 - - - ; - 1 ; ; ; - - - - - ; : - ; ; < - - 1 ; ; - ; ; - - ; - ; - - - - ; - < j ( %.",
") 0 1 1 C Y Y R Y Y Y Y Y Y R Y Y Y Y I R R Y Y Y R R R R I I I I R I I Y Y I Y Y I Y Y R P I Y R R R R I R R I R P R k < 3 0 ) ",
"4 < 3 9 } %.%.%.%.%.*.&.%.%.%.*.%.*.&.&.%.%.*.*.*.*.%.%.*.*.&.%.%.&.*.*.*.*.*.*.*.%.%.&.*.*.@.%.*.*.%.*.&.&.:.*.&.#.&.{ 7 1 1 4 ",
"< < P [ +.-.-.*.*.,.,.:.-.*.;.,.:.,.*.*.*.-.;.*.*.-.-.-.-.-.*.=.#.>.-.>.:.>.>.>.-.*.-.,.;.;.;.*.*.,.,.,.-.-.-.-.,.,.,.+.{ V < < ",
"< 1 Q %.=.-.-.-.-.-.:.,.,.;.:.;.,.,.,.,.;.;.;.-.-.-.-.>.-.*.-.-.#.#.-.-.*.*.>.>.-.-.-.;.;.;.;.;.-.-.,.>.>.-.-.-.*.*.;.,.*.T < - ",
"< < E *.*.-.,.*.-.-.,.;.,.,.*.,.:.,.,.;.,.;.;.;.,.,.,.,.,.-.-.-.:.-.-.-.#.=.-.-.-.,.,.*.*.*.*.;.,.*.-.-.-.*.-.-.,.,.-.;.*.P - - ",
"- < E *.-.,.:.,.-.-.-.*.,.-.;.*.,.,.,.,.,.,.*.%.-.*.-.,.>.>.-.>.>.-.-.-.:.-.=.-.*.;.*.*.;.;.;.;.*.-.*.-.-.-.-.>.,.,.;.;.-.R - 2 ",
"; < Q *.*.;.;.*.*.-.-.=.-.-.-.-.;.;.;.;.;.*.*.;.-.-.>.>.>.:.:.>.-.>.-.=.*.=.=.*.;.-.-.*.;.;.;.#.-.*.;.*.-.*.*.;.,.,.;.*.*.R - 2 ",
"1 < Q ,.;.*.;.;.-.-.-.=.-.-.-.-.;.;.;.;.;.*.;.;.-.-.-.>.>.:.>.:.-.=.=.-.*.-.;.;.-.;.;.-.;.;.;.;.-.*.;.;.-.;.*.*.,.,.;.;.*.T @ < ",
"; < E *.;.;.;.../ ~ ! ~ ~ ~ ~ ~ / E Q / Q Q / Q Q Q ~ Q Q Q ~ ~ ! ! Q Q Q ~ ~ ~ ~ ! ! ~ / T E / / Q / Q ! ! Q / } ,.*.*.*.I ; < ",
"@ 1 E *.*.*.{ V * * * * * * * * * & * * * * * * * * * * & * * = = & = & * * * = * * = * * X * O = X * * * * = , q / %.,.*.I # < ",
"- 1 R *.;.*.L *   o O O o + O O O O O O + o O + - + o o = = & . . = * - o + O + O o o o + o o o o o o o O O o X & q O.,.:.T - 2 ",
"< 1 Q *.*.*.q & + Z Z S B Z Z Z Z S Z Z Z Z Z Z B B Z B Z N u . ; m Z B B B Z B Z Z Z Z Z Z Z S Z Z Z Z Z S N 6 . 8 o.,.*.T - - ",
"; < W *.;.&.V . @ F J J K K K J J J J K J J K J J K K J K J r X : H J K J J J K J J J K J J J J J J K J J J H u . 8 O.*.*.I - < ",
"; < Q *.;.%.V . + Z A A A A A A A A A A A A A A A A A A A A r X ; B A A A A A S A A A A A A S A A A A S A A B 5 . 8 o.;.*.Y ; - ",
"; 1 W *.=.*.V . * z M M m M M m M m M m m M m m m M m M m n > . - n M n M M n n m M M m n n n A N M n n M M n : X 8 o.-.*.T - 1 ",
"; < W *.=.%.V . - z M m m m m m m m m m m m m m m m m m m n r . - n M M n M n n M m m M M M n M n N n B n M v : . 8 o.-.:.I < 1 ",
"; < R *.*.*.L   ; l M M m M m m m m m M m m m m m n m M m n r . - n M n n n n A m M n M M M n n n n M n M M c 6 X 8 o.-.*.I ; - ",
"1 1 R *.*.%.V . ; z M M M M M M M m M M M M m M m M M M M m r   - n n B n M M A M M n M M M M A M B n B M M n $ . 8 o.-.*.I ; 1 ",
"; 1 W *.*.*.V . + d l n z n z z c c z c l l l l z z z n f c : . + s z l l z z z z c l l x z z z l l l l l l l # . 8 O.>.%.I 1 < ",
"; ; W *.=.*.V . o r r e e s r r e e e e s i r s e r e e r r ; . o r i i i i s i i s r i i i i e e s s y y y y + . 8 O.*.*.P ; - ",
"; < E *.*.%.V . o r r r r r r r r r r r r r r i r r r r r r ; . o r r r r r r w r r w r u w w u e y y w t t w + . 8 O.-.*.P < - ",
"; 1 E *.,.%.V . . # # - ; : ; - ; : + # ; ; ; ; ; + # ; ; : * . X + : : + + # # # # # $ @ # + - # @ # @ # # # o . 8 O.-.*.I 1 - ",
"; < E *.-.*.V . . . . X . . . . X . . . . . .   . &   . & & . .   & X & X & X . .   & X X X . . . . . . X . X X . 8 o.>.*.P ; - ",
"1 1 W *.*.*.V . o 6 p a a a a p e p - . = p i p p p p a p a r a u u a u u a a p p a p *   + p p p a p a a p p = & 8 o.:.:.P - - ",
"; 1 W *.-.%.V . ; A G G G G G G G A ; . > S G D G F G G G G G G G D G G G G D G G G A : X p D H H D D G H F F 6 . 8 O.:.*.R < < ",
"; 1 W *.-.+.V . ; S J J J J J J J A ; . r G J J J J J J H H J J J J J J H H J J J J G ; X u H J J J J J J J D p & 8 O.:.*.P - - ",
"; 1 W :.:.+.q & @ n B A A A A B A m - . : M A A B A A A Z A M A A B A A A A A A A B M - & 6 B B B A A A A B B 6 X 8 o.-.*.P - - ",
"; 1 R :.>.%.L . - x m m n m m m m x - . : c m m m m m m m m m m m m m M m m m m m m c - . 5 n m m m M m m m m 5 . 8 o.-.*.T - - ",
"1 1 W *.>.&.L . - c m m m m m m m c ; . : c M M m m m m m m m m m M m M M m m m m m n + . 5 n m m M m m m m n 5 . 8 o.-.:.T < - ",
"; 1 E *.>.*.q X + l m m m m m m m c - . ; m m m m m m m m m m m m M m m m m m m m m n - . 5 n m m M m m n m n $ . 8 o.*.*.I ; - ",
"; - E *.,.*.V . + l M B m B M B M x + . # n M B m m m n M M M M M M M M M m m M B m v + X > M m m M M M B M n : . 8 ..:.&.P - - ",
"; ; W *.*.&.V . @ z m B n M m A n x +   1 c n B n n n n n n m n m m M M n m m m M m c # X > m B n n n m B m c % . 8 X.:.*.L - # ",
"1 ; R *.*.&.V . + f d g f d g g d s + . # f f g g g l l g g g g f g x x g g f f g z f o . ; d l d l f g z l d + X 8 *.:.*.P ; # ",
"; 1 E *.,.*.V . o r i w r r r w w w o X @ w w t e r e e e e s r r r s i e r r r r i r o . + r r r i i r i w w + . 8 &.:.*.I ; # ",
"; ; W *.,.&.V . X $ i $ 5 > $ $ % $ O X + 5 $ 6 w $ % % 6 % % % $ $ : > r r > > : : : o   o $ % r : u $ $ : $ + & 8 &.>.*.T - ; ",
"; ; W *.,.&.V .   X o X O X X o + X . . X X O X o o o X o X o X o X o X - X X X o o X X . X o o + o o o X o o X   8 O.>.*.P - ; ",
"; ; W *.,.*.V . . o o o O O o + + o o O = + o o - * o - O O X   X o * - - = + + + o + * o + + + o + o + + = * X . 4 ..:.:.R - ; ",
"; ; E *.*.&.V X O l z z v v v l v v c v v v v v x v c l v v 5 . - l c c z c z z z x x b x z z n z z x z v v b # & 4 X.:.&.U - - ",
"; 1 W *.>.%.V . 1 G K K K J K K K K K K K K K K K K K K K K a X : F K K K K K K K K K K K K K K K K K K K K J u . 4 :.:.&.P ; ; ",
"; ; W *.=.#.L . ; m G G G A D G D D D D D D G G G G A G G D r X ; S G G G G G G G D G G G G A A G D G G G G D 6 & 8 O.:.&.L - ; ",
"; - R &.:.&.k . - l m M M M m m M n M n m m m m M M M n n m > & ; n m m n B B n n n A n n M A n M m m M m M m : . 8 o.:.*.L - - ",
"1 1 E :.>.$.L . - c m m M M m M M M n M m m m m n m m n n n > X - n M M M M M M n M n n n M M n m M m m M m v : . 8 &.>.:.P - - ",
"; ; W &.>.*.L   @ l m m n M n M M m m n m M m m M M n m M M 6 . - n M M m n m M M M n n M n M M m m m m M m m : & 8 $.:.&.P ; ; ",
"1 ; R #.=.&.V   # z m m n M n n M n n n m m M m n M M M M n 5 X - n M M M n m A M M n B B n M n m M m m m N m : . : O.>.&.P - ; ",
"; 1 E *.:.$.V . + c n M M M M M n n M m M M M m n M B M n n 6 . - n M B M B m M M A n A A n B A B M M M M M m : . 4 +.>.:.P - ; ",
"; 1 R *.-.$.L . @ l z n c z M M n c m n v n n c z n z c c c 6 X - z c M c M z M z B z n z n z M m m n z m M l : . 8 o.:.:.T ; ; ",
"1 ; E *.=.*.L & @ r r e d w w d e e l d r r d e e e l e s y # . + w e s r d r s e l r e r d d r r r s r r e r ; X 4 o.*.*.P ; ; ",
"; ; R *.=.*.q . o > r r r r w s r r r r e e e e e e e e e w @ X o r e w e e r r e e e e e r r r r r r f r r r ; X 3 O.*.*.P ; ; ",
"; ; W :.*.&.k X X : : : > > > % > : : : > $ $ $ $ $ % $ $ $ o . o - $ $ % $ : : $ $ $ $ > $ : : > > > > : > > * . 8 o.>.:.P ; ; ",
"; ; W &.>.:.P 2   X X X   X   X X . . . X X X . X X   X . . . .   X X X X   . . X X   X X X . & . . . . X X X & = k O.>.&.U ; - ",
"; 3 ~ *.>.>.o.^ 2 2 = = = - = = - = = = = = = - = - - , , , , , = = , , - = = = = = = = = - = = = = - - = , = - U X.=.-.&.L ; - ",
"- - R *.>.>.>.$.' [ ' _ ` _ ' ` ) ] ` ` ' ] ` ] ` ` ` ] ' ' _ ` _ _ _ ' _ ] ' _ _ _ ` ` _ ] ` ` ( ( ^ ] ( [ ( [ ..*.>.=.:.P ; ; ",
"- ; W *.>.>.-.=.-.>.>.>.>.>.>.>.>.-.-.>.>.>.>.>.>.>.,.,.*.;.-.-.;.;.>.-.-.>.>.-.-.-.-.=.-.-.>.-.>.>.-.>.:.>.>.>.-.#.=.-.*.T ; - ",
"; - W &.=.-.>.=.=.>.-.-.-.-.-.-.-.-.>.>.>.>.-.:.>.>.>.-.;.*.-.-.-.,.;.-.-.>.-.-.=.*.#.-.*.-.-.-.>.>.=.>.:.>.=.>.=.=.*.:.*.R 1 - ",
"; ; W #.-.-.>.>.=.-.-.-.-.>.-.-.-.-.>.-.>.-.-.-.-.-.-.>.-.#.#.#.=.,.;.;.;.;.;.;.>.-.=.=.-.-.>.-.>.-.=.=.=.=.=.=.*.=.*.=.@.P - - ",
"- - W *.-.>.>.>.>.=.-.-.>.>.>.-.-.-.-.-.>.>.-.:.>.>.>.>.>.#.#.%.=.-.,.,.-.*.,.-.>.>.-.-.-.-.-.-.*.*.-.*.-.,.,.-.#.-.=.-.*.Y < ; ",
"; ; W %.-.-.>.>.>.>.>.>.-.,.>.-.-.-.#.:.=.-.-.#.*.-.>.>.-.#.#.-.-.-.-.-.-.-.,.,.>.>.>.-.-.-.-.-.-.-.-.-.,.,.*.-.*.-.=.,.@.Y @ ; ",
"1 ; P  .#.>.-.-.>.>.>.>.>.>.>.>.>.>.>.#.>.-.#.#.*.-.-.-.-.-.-.#.,.-.-.-.-.>.>.,.>.-.-.-.>.>.>.-.-.-.,.,.,.,.-.-.-.=.=.%. .C 1 - ",
"3 - 3 0 | &.%.+.*.&.*.*.-.*.*.&.@.%.#.%.*.*.%.%.%.*.*.%.#.#.%.%.%.#.#.#.*.*.*.%.$.*.%.%.%.:.#.*.*.*.*.*.*.%.%.*.%.%.%.{ 0 1 < 3 ",
"/ 0 - 3 L R R R R R R P R W R R Y Y R Y R R R P R R R R R R I R R R R W R R R R R P R I I I R R I R R R R R R R R I R C < - q / ",
"@.~ 4 < - - ; ; - ; ; ; ; - ; - ; - ; - ; ; : - ; - ; : ; - ; ; - ; - - - - ; ; - : - : ; - - - - ; - - ; ; - - < 1 - < < 0 Q @.",
"-.%.W ; - - + + - ; ; + - + + ; - + - - - - + - + o - - # + + ; + - + + + - + - + - + + + - # + - + + - @ @ + + O - - - 1 ( %.-."
};
